; GCode generated by CraftWare

G28 X0 Y0
G28 Z0

M190 S60 ;set bed temp (wait)
M109 S215 ;set head temp (wait)
; ------------------------------------
; Layer #0
; ------------------------------------
G21 ; mm
G90 ; abs
G92 E0 ; reset extr
M106 S0
;segType:Skirt
G0 F4800 E-1.0000
G0 F300 Z0.300
G0 X115.283 Y117.735 F10800
G0 F4800 E0.0000
G1 X116.307 Y118.759 E0.0723 F600
G1 X116.946 Y119.143 E0.1095
G1 X117.458 Y119.656 E0.1456
G1 X118.098 Y120.040 E0.1829
G1 X118.354 Y120.296 E0.2009
G1 X118.738 Y120.424 E0.2211
G1 X120.658 Y121.576 E0.3328
G1 X121.426 Y121.832 E0.3732
G1 X121.554 Y121.960 E0.3822
G1 X121.810 Y121.960 E0.3950
G1 X121.937 Y122.089 E0.4040
G1 X122.193 Y122.089 E0.4168
G1 X122.514 Y122.281 E0.4354
G1 X122.898 Y122.409 E0.4556
G1 X123.345 Y122.473 E0.4782
G1 X123.473 Y122.601 E0.4872
G1 X123.729 Y122.601 E0.5000
G1 X123.857 Y122.729 E0.5090
G1 X124.753 Y122.857 E0.5542
G1 X124.881 Y122.985 E0.5632
G1 X125.137 Y122.985 E0.5760
G1 X125.393 Y123.113 E0.5902
G1 X126.673 Y123.241 E0.6544
G1 X127.185 Y123.241 E0.6800
G1 X127.568 Y123.369 E0.7001
G1 X132.943 Y123.369 E0.9683
G1 X133.071 Y123.241 E0.9773
G1 X133.583 Y123.241 E1.0029
G1 X133.711 Y123.113 E1.0119
G1 X134.223 Y123.113 E1.0374
G1 X134.607 Y122.985 E1.0576
G1 X135.503 Y122.857 E1.1028
G1 X136.655 Y122.473 E1.1634
G1 X136.911 Y122.473 E1.1761
G1 X137.039 Y122.345 E1.1852
G1 X137.295 Y122.345 E1.1979
G1 X137.423 Y122.217 E1.2070
G1 X137.679 Y122.217 E1.2197
G1 X137.807 Y122.089 E1.2288
G1 X138.063 Y122.089 E1.2415
G1 X138.191 Y121.960 E1.2506
G1 X138.446 Y121.960 E1.2633
G1 X139.086 Y121.576 E1.3006
G1 X139.470 Y121.448 E1.3208
G1 X140.110 Y121.064 E1.3580
G1 X140.494 Y120.936 E1.3782
G1 X141.134 Y120.552 E1.4154
G1 X141.390 Y120.296 E1.4335
G1 X142.670 Y119.527 E1.5080
G1 X143.182 Y119.015 E1.5441
G1 X143.501 Y118.823 E1.5627
G1 X144.269 Y118.055 E1.6169
G1 X144.589 Y117.863 E1.6355
G1 X148.173 Y114.277 E1.8884
G1 X148.364 Y113.958 E1.9070
G1 X148.876 Y113.445 E1.9431
G1 X149.069 Y113.125 E1.9618
G1 X149.324 Y112.869 E1.9799
G1 X149.516 Y112.549 E1.9985
G1 X149.772 Y112.293 E2.0165
G1 X150.924 Y110.372 E2.1283
G1 X151.052 Y110.244 E2.1373
G1 X151.052 Y109.988 E2.1501
G1 X151.436 Y109.348 E2.1873
G1 X151.692 Y108.579 E2.2277
G1 X152.076 Y107.939 E2.2650
G1 X152.076 Y107.683 E2.2777
G1 X152.204 Y107.555 E2.2868
G1 X152.204 Y107.299 E2.2995
G1 X152.332 Y107.171 E2.3086
G1 X152.332 Y106.915 E2.3214
G1 X152.460 Y106.787 E2.3304
G1 X152.524 Y106.338 E2.3530
G1 X152.652 Y105.954 E2.3732
G1 X152.716 Y105.506 E2.3958
G1 X152.844 Y105.378 E2.4048
G1 X153.228 Y102.689 E2.5403
G1 X153.228 Y97.055 E2.8214
G1 X153.100 Y96.671 E2.8416
G1 X153.100 Y96.158 E2.8672
G1 X152.972 Y95.774 E2.8874
G1 X152.972 Y95.262 E2.9129
G1 X152.844 Y94.878 E2.9331
G1 X152.844 Y94.622 E2.9459
G1 X152.716 Y94.494 E2.9549
G1 X152.716 Y94.238 E2.9677
G1 X152.588 Y94.110 E2.9767
G1 X152.588 Y93.854 E2.9895
G1 X152.460 Y93.726 E2.9985
G1 X152.396 Y93.278 E3.0211
G1 X152.012 Y92.125 E3.0817
G1 X151.820 Y91.805 E3.1004
G1 X151.820 Y91.549 E3.1131
G1 X151.436 Y90.908 E3.1504
G1 X151.436 Y90.652 E3.1632
G1 X149.516 Y87.451 E3.3494
G1 X149.004 Y86.939 E3.3855
G1 X148.813 Y86.619 E3.4041
G1 X148.301 Y86.107 E3.4402
G1 X148.108 Y85.786 E3.4589
G1 X144.269 Y81.945 E3.7298
G1 X143.949 Y81.753 E3.7484
G1 X142.926 Y80.729 E3.8207
G1 X141.646 Y79.960 E3.8952
G1 X141.390 Y79.704 E3.9132
G1 X140.750 Y79.320 E3.9505
G1 X140.366 Y79.192 E3.9707
G1 X139.726 Y78.808 E4.0079
G1 X139.342 Y78.680 E4.0281
G1 X138.702 Y78.296 E4.0653
G1 X138.318 Y78.168 E4.0855
G1 X138.191 Y78.040 E4.0945
G1 X137.742 Y77.975 E4.1171
G1 X135.439 Y77.207 E4.2383
G1 X134.735 Y77.143 E4.2735
G1 X134.607 Y77.015 E4.2826
G1 X134.095 Y77.015 E4.3081
G1 X133.711 Y76.887 E4.3283
G1 X133.199 Y76.887 E4.3538
G1 X133.071 Y76.759 E4.3629
G1 X127.185 Y76.759 E4.6566
G1 X127.057 Y76.887 E4.6656
G1 X126.033 Y76.887 E4.7167
G1 X125.905 Y77.015 E4.7257
G1 X125.393 Y77.015 E4.7513
G1 X125.009 Y77.143 E4.7714
G1 X124.753 Y77.143 E4.7842
G1 X124.625 Y77.271 E4.7932
G1 X123.729 Y77.399 E4.8384
G1 X123.601 Y77.527 E4.8474
G1 X123.154 Y77.591 E4.8700
G1 X122.770 Y77.719 E4.8902
G1 X122.449 Y77.912 E4.9088
G1 X122.193 Y77.912 E4.9216
G1 X121.874 Y78.103 E4.9402
G1 X121.490 Y78.231 E4.9604
G1 X121.170 Y78.424 E4.9790
G1 X120.914 Y78.424 E4.9918
G1 X120.274 Y78.808 E5.0290
G1 X119.890 Y78.936 E5.0492
G1 X117.651 Y80.280 E5.1795
G1 X117.395 Y80.536 E5.1976
G1 X117.074 Y80.729 E5.2162
G1 X116.818 Y80.985 E5.2343
G1 X116.499 Y81.177 E5.2529
G1 X116.243 Y81.433 E5.2709
G1 X115.923 Y81.625 E5.2896
G1 X112.595 Y84.954 E5.5244
G1 X112.403 Y85.274 E5.5430
G1 X111.124 Y86.555 E5.6333
G1 X110.931 Y86.875 E5.6520
G1 X110.676 Y87.131 E5.6700
G1 X110.484 Y87.451 E5.6886
G1 X110.228 Y87.707 E5.7067
G1 X109.844 Y88.347 E5.7439
G1 X109.588 Y88.603 E5.7620
G1 X109.460 Y88.988 E5.7822
G1 X108.692 Y90.268 E5.8567
G1 X108.564 Y90.652 E5.8769
G1 X108.180 Y91.293 E5.9141
G1 X108.180 Y91.549 E5.9269
G1 X108.052 Y91.677 E5.9360
G1 X108.052 Y91.933 E5.9487
G1 X107.860 Y92.253 E5.9674
G1 X107.348 Y93.790 E6.0482
G1 X107.284 Y94.238 E6.0708
G1 X107.156 Y94.366 E6.0798
G1 X107.156 Y94.878 E6.1053
G1 X107.028 Y95.006 E6.1144
G1 X107.028 Y95.518 E6.1399
G1 X106.900 Y95.646 E6.1490
G1 X106.773 Y96.543 E6.1941
G1 X106.773 Y97.567 E6.2452
G1 X106.645 Y97.695 E6.2543
G1 X106.645 Y102.305 E6.4843
G1 X106.773 Y102.689 E6.5045
G1 X106.773 Y103.713 E6.5556
G1 X106.900 Y104.098 E6.5758
G1 X107.028 Y104.994 E6.6209
G1 X107.156 Y105.378 E6.6411
G1 X107.156 Y105.634 E6.6539
G1 X107.284 Y105.762 E6.6629
G1 X107.284 Y106.274 E6.6885
G1 X107.412 Y106.403 E6.6975
G1 X107.412 Y106.659 E6.7103
G1 X107.540 Y106.787 E6.7193
G1 X107.540 Y107.043 E6.7321
G1 X107.732 Y107.363 E6.7507
G1 X108.244 Y108.899 E6.8315
G1 X108.436 Y109.220 E6.8502
G1 X108.564 Y109.604 E6.8704
G1 X108.820 Y109.860 E6.8884
G1 X108.948 Y110.244 E6.9086
G1 X109.332 Y110.884 E6.9459
G1 X109.460 Y111.268 E6.9661
G1 X109.716 Y111.525 E6.9841
G1 X110.100 Y112.165 E7.0214
G1 X110.356 Y112.421 E7.0395
G1 X110.740 Y113.061 E7.0767
G1 X110.996 Y113.317 E7.0948
G1 X111.187 Y113.637 E7.1134
G1 X115.283 Y117.735 E7.4024
G0 F4800 E6.4024
G0 X121.682 Y108.388 F10800
G0 F4800 E7.4024
G1 X121.489 Y108.067 E7.4210 F600
G1 X121.233 Y107.811 E7.4391
G1 X120.465 Y106.531 E7.5136
G1 X120.338 Y106.146 E7.5338
G1 X119.954 Y105.506 E7.5710
G1 X119.826 Y105.122 E7.5912
G1 X119.634 Y104.802 E7.6098
G1 X119.506 Y104.418 E7.6300
G1 X119.314 Y104.098 E7.6487
G1 X119.314 Y103.842 E7.6615
G1 X119.186 Y103.713 E7.6705
G1 X119.058 Y102.817 E7.7157
G1 X118.930 Y102.689 E7.7247
G1 X118.802 Y101.793 E7.7699
G1 X118.674 Y101.665 E7.7789
G1 X118.674 Y101.152 E7.8045
G1 X118.546 Y100.256 E7.8496
G1 X118.546 Y99.232 E7.9007
G1 X118.674 Y99.104 E7.9098
G1 X118.674 Y98.591 E7.9353
G1 X118.802 Y98.207 E7.9555
G1 X118.930 Y97.311 E8.0007
G1 X119.058 Y97.183 E8.0097
G1 X119.122 Y96.734 E8.0323
G1 X119.506 Y95.582 E8.0929
G1 X119.698 Y95.262 E8.1115
G1 X119.954 Y94.494 E8.1519
G1 X121.489 Y91.933 E8.3009
G1 X121.745 Y91.677 E8.3190
G1 X122.065 Y91.484 E8.3376
G1 X122.321 Y91.228 E8.3557
G1 X123.601 Y90.460 E8.4302
G1 X123.985 Y90.332 E8.4503
G1 X124.625 Y89.948 E8.4876
G1 X125.009 Y89.820 E8.5078
G1 X125.137 Y89.692 E8.5168
G1 X125.393 Y89.692 E8.5296
G1 X125.521 Y89.564 E8.5386
G1 X125.777 Y89.564 E8.5514
G1 X125.905 Y89.436 E8.5604
G1 X126.161 Y89.436 E8.5732
G1 X126.480 Y89.244 E8.5918
G1 X126.929 Y89.179 E8.6144
G1 X127.057 Y89.051 E8.6234
G1 X127.952 Y88.923 E8.6685
G1 X128.336 Y88.795 E8.6887
G1 X128.848 Y88.795 E8.7143
G1 X128.976 Y88.667 E8.7233
G1 X130.512 Y88.667 E8.7999
G1 X131.408 Y88.795 E8.8451
G1 X131.664 Y88.795 E8.8578
G1 X131.792 Y88.923 E8.8669
G1 X132.304 Y88.923 E8.8924
G1 X132.432 Y89.051 E8.9014
G1 X133.327 Y89.179 E8.9466
G1 X133.455 Y89.308 E8.9556
G1 X133.711 Y89.308 E8.9684
G1 X133.839 Y89.436 E8.9774
G1 X134.095 Y89.436 E8.9902
G1 X134.223 Y89.564 E8.9992
G1 X134.479 Y89.564 E9.0120
G1 X135.119 Y89.948 E9.0492
G1 X135.887 Y90.204 E9.0896
G1 X137.807 Y91.356 E9.2013
G1 X138.574 Y92.125 E9.2555
G1 X139.918 Y94.366 E9.3859
G1 X139.918 Y94.622 E9.3987
G1 X140.302 Y95.262 E9.4359
G1 X140.942 Y97.183 E9.5369
G1 X140.942 Y97.439 E9.5497
G1 X141.070 Y97.567 E9.5587
G1 X141.070 Y98.079 E9.5843
G1 X141.198 Y98.207 E9.5933
G1 X141.198 Y98.719 E9.6189
G1 X141.326 Y99.104 E9.6391
G1 X141.326 Y100.640 E9.7157
G1 X141.198 Y101.537 E9.7609
G1 X141.198 Y101.793 E9.7737
G1 X141.070 Y101.921 E9.7827
G1 X141.070 Y102.433 E9.8083
G1 X140.942 Y102.561 E9.8173
G1 X140.814 Y103.457 E9.8625
G1 X140.686 Y103.585 E9.8715
G1 X140.686 Y103.842 E9.8843
G1 X140.558 Y103.970 E9.8933
G1 X140.558 Y104.226 E9.9061
G1 X140.430 Y104.354 E9.9151
G1 X140.430 Y104.610 E9.9279
G1 X140.046 Y105.250 E9.9651
G1 X139.790 Y106.018 E10.0055
G1 X139.535 Y106.274 E10.0236
G1 X139.407 Y106.659 E10.0438
G1 X138.830 Y107.619 E10.0997
G1 X138.574 Y107.875 E10.1178
G1 X138.383 Y108.195 E10.1364
G1 X138.127 Y108.451 E10.1544
G1 X137.807 Y108.644 E10.1731
G1 X137.551 Y108.900 E10.1911
G1 X136.271 Y109.668 E10.2656
G1 X135.887 Y109.796 E10.2858
G1 X135.247 Y110.180 E10.3230
G1 X134.863 Y110.308 E10.3432
G1 X134.735 Y110.436 E10.3522
G1 X134.479 Y110.436 E10.3650
G1 X134.351 Y110.564 E10.3740
G1 X134.095 Y110.564 E10.3868
G1 X133.967 Y110.692 E10.3958
G1 X133.711 Y110.692 E10.4086
G1 X133.583 Y110.821 E10.4177
G1 X133.327 Y110.821 E10.4304
G1 X133.199 Y110.949 E10.4395
G1 X132.304 Y111.077 E10.4846
G1 X132.176 Y111.205 E10.4936
G1 X131.664 Y111.205 E10.5192
G1 X131.536 Y111.333 E10.5282
G1 X130.768 Y111.333 E10.5665
G1 X130.640 Y111.461 E10.5755
G1 X129.360 Y111.461 E10.6394
G1 X129.232 Y111.333 E10.6484
G1 X128.464 Y111.333 E10.6867
G1 X128.336 Y111.205 E10.6958
G1 X127.824 Y111.205 E10.7213
G1 X127.057 Y110.949 E10.7617
G1 X126.801 Y110.949 E10.7745
G1 X126.673 Y110.821 E10.7835
G1 X125.905 Y110.692 E10.8223
G1 X125.649 Y110.564 E10.8366
G1 X125.265 Y110.436 E10.8568
G1 X124.625 Y110.052 E10.8940
G1 X124.369 Y110.052 E10.9068
G1 X122.129 Y108.707 E11.0371
G1 X121.873 Y108.451 E11.0552
G1 X121.682 Y108.388 E11.0653
G1 X122.129 Y108.323 E11.0878
G1 X121.617 Y107.811 E11.1240
G1 X120.849 Y106.531 E11.1985
G1 X120.721 Y106.146 E11.2187
G1 X120.338 Y105.506 E11.2559
G1 X120.210 Y105.122 E11.2761
G1 X120.018 Y104.802 E11.2947
G1 X119.890 Y104.418 E11.3149
G1 X119.698 Y104.098 E11.3336
G1 X119.698 Y103.842 E11.3463
G1 X119.570 Y103.713 E11.3554
G1 X119.442 Y102.817 E11.4005
G1 X119.314 Y102.689 E11.4096
G1 X119.186 Y101.793 E11.4547
G1 X119.058 Y101.665 E11.4638
G1 X119.058 Y101.152 E11.4893
G1 X118.930 Y100.256 E11.5345
G1 X118.930 Y99.232 E11.5856
G1 X119.058 Y99.104 E11.5946
G1 X119.058 Y98.591 E11.6202
G1 X119.186 Y98.207 E11.6404
G1 X119.314 Y97.311 E11.6856
G1 X119.442 Y97.183 E11.6946
G1 X119.506 Y96.734 E11.7172
G1 X119.890 Y95.582 E11.7778
G1 X120.082 Y95.262 E11.7964
G1 X120.338 Y94.494 E11.8368
G1 X121.873 Y91.933 E11.9858
G1 X124.113 Y90.588 E12.1161
G1 X124.117 Y90.587 E12.1163
G0 F4800 E11.1163
G0 X135.928 Y112.365 F10800
G0 X137.109 Y114.543
G0 X138.290 Y116.721
G0 F4800 E12.1163
;segType:HShell
G1 X146.778 Y108.228 E12.7154 F600
;segType:Perimeter
G0 X146.809 Y108.455 F10800
G1 X147.034 Y109.109 E12.7499 F360
G1 X145.637 Y111.344 E12.8814
G1 X143.907 Y113.407 E13.0157
G1 X141.906 Y115.208 E13.1501
G1 X139.673 Y116.714 E13.2844
G1 X137.254 Y117.894 E13.4187
G1 X134.693 Y118.726 E13.5530
G1 X132.041 Y119.194 E13.6874
G1 X129.350 Y119.288 E13.8217
G1 X126.672 Y119.006 E13.9560
G1 X124.060 Y118.355 E14.0904
G1 X121.563 Y117.346 E14.2247
G1 X119.231 Y116.000 E14.3590
G1 X117.110 Y114.342 E14.4934
G1 X115.239 Y112.405 E14.6277
G1 X113.657 Y110.227 E14.7620
G1 X112.393 Y107.850 E14.8964
G1 X111.472 Y105.320 E15.0307
G1 X110.912 Y102.686 E15.1650
G1 X110.724 Y100.000 E15.2993
G1 X110.912 Y97.314 E15.4337
G1 X111.472 Y94.680 E15.5680
G1 X112.393 Y92.150 E15.7023
G1 X113.657 Y89.773 E15.8367
G1 X115.239 Y87.595 E15.9710
G1 X117.110 Y85.658 E16.1053
G1 X119.231 Y84.000 E16.2396
G1 X121.563 Y82.654 E16.3740
G1 X124.060 Y81.645 E16.5083
G1 X126.672 Y80.994 E16.6426
G1 X129.350 Y80.712 E16.7770
G1 X132.041 Y80.806 E16.9113
G1 X134.693 Y81.274 E17.0456
G1 X137.254 Y82.106 E17.1800
G1 X139.673 Y83.286 E17.3143
G1 X141.906 Y84.792 E17.4486
G1 X143.907 Y86.593 E17.5830
G1 X145.637 Y88.656 E17.7173
G1 X147.064 Y90.940 E17.8516
G1 X148.159 Y93.399 E17.9859
G1 X148.902 Y95.987 E18.1203
G1 X149.276 Y98.654 E18.2546
G1 X149.276 Y101.346 E18.3889
G1 X148.902 Y104.013 E18.5233
G1 X148.159 Y106.601 E18.6576
G1 X147.088 Y109.008 E18.7890
G1 X146.420 Y109.187
;segType:Loop
G0 X146.165 Y109.745 F10800
G1 X145.313 Y111.108 E18.8692 F600
G1 X143.618 Y113.128 E19.0008
G1 X141.659 Y114.892 E19.1323
G1 X139.473 Y116.366 E19.2639
G1 X137.103 Y117.522 E19.3954
G1 X134.596 Y118.337 E19.5269
G1 X131.999 Y118.795 E19.6585
G1 X129.364 Y118.887 E19.7900
G1 X126.742 Y118.611 E19.9216
G1 X124.184 Y117.973 E20.0531
G1 X121.739 Y116.985 E20.1847
G1 X119.456 Y115.667 E20.3162
G1 X117.378 Y114.044 E20.4477
G1 X115.547 Y112.147 E20.5793
G1 X113.997 Y110.014 E20.7108
G1 X112.759 Y107.687 E20.8423
G1 X111.857 Y105.209 E20.9739
G1 X111.309 Y102.630 E21.1054
G1 X111.125 Y100.000 E21.2370
G1 X111.309 Y97.370 E21.3685
G1 X111.857 Y94.791 E21.5000
G1 X112.759 Y92.313 E21.6316
G1 X113.997 Y89.986 E21.7631
G1 X115.547 Y87.853 E21.8946
G1 X117.378 Y85.956 E22.0262
G1 X119.456 Y84.333 E22.1577
G1 X121.739 Y83.015 E22.2893
G1 X124.184 Y82.027 E22.4208
G1 X126.742 Y81.389 E22.5523
G1 X129.364 Y81.113 E22.6839
G1 X131.999 Y81.205 E22.8154
G1 X134.596 Y81.663 E22.9470
G1 X137.103 Y82.478 E23.0785
G1 X139.473 Y83.634 E23.2100
G1 X141.659 Y85.108 E23.3416
G1 X143.618 Y86.872 E23.4731
G1 X145.313 Y88.892 E23.6047
G1 X146.710 Y91.128 E23.7362
G1 X147.783 Y93.536 E23.8677
G1 X148.509 Y96.071 E23.9993
G1 X148.876 Y98.682 E24.1308
G1 X148.876 Y101.318 E24.2624
G1 X148.509 Y103.929 E24.3939
G1 X147.783 Y106.463 E24.5254
G1 X146.710 Y108.872 E24.6570
G1 X146.267 Y109.582 E24.6987
G0 X143.281 Y111.289 F10800
G0 X140.478 Y111.976
G1 X140.119 Y112.302 E24.7229 F600
G1 X138.865 Y113.232 E24.8008
G1 X137.525 Y114.035 E24.8787
G1 X136.113 Y114.703 E24.9566
G1 X134.643 Y115.229 E25.0345
G1 X133.128 Y115.608 E25.1125
G1 X131.583 Y115.838 E25.1904
G1 X130.024 Y115.914 E25.2683
G1 X128.464 Y115.838 E25.3462
G1 X126.919 Y115.608 E25.4241
G1 X125.404 Y115.229 E25.5020
G1 X123.934 Y114.703 E25.5799
G1 X122.522 Y114.035 E25.6578
G1 X121.183 Y113.232 E25.7358
G1 X119.928 Y112.302 E25.8137
G1 X118.771 Y111.253 E25.8916
G1 X117.722 Y110.096 E25.9695
G1 X116.792 Y108.842 E26.0474
G1 X115.989 Y107.502 E26.1253
G1 X115.321 Y106.090 E26.2032
G1 X114.795 Y104.620 E26.2812
G1 X114.416 Y103.105 E26.3591
G1 X114.187 Y101.560 E26.4370
G1 X114.110 Y100.000 E26.5149
G1 X114.187 Y98.440 E26.5928
G1 X114.416 Y96.895 E26.6707
G1 X114.795 Y95.380 E26.7486
G1 X115.321 Y93.910 E26.8266
G1 X115.989 Y92.498 E26.9045
G1 X116.792 Y91.158 E26.9824
G1 X117.722 Y89.904 E27.0603
G1 X118.771 Y88.747 E27.1382
G1 X119.928 Y87.698 E27.2161
G1 X121.183 Y86.768 E27.2941
G1 X122.522 Y85.965 E27.3720
G1 X123.934 Y85.297 E27.4499
G1 X125.404 Y84.771 E27.5278
G1 X126.919 Y84.392 E27.6057
G1 X128.464 Y84.162 E27.6836
G1 X130.024 Y84.086 E27.7615
G1 X131.583 Y84.162 E27.8394
G1 X133.128 Y84.392 E27.9174
G1 X134.643 Y84.771 E27.9953
G1 X136.113 Y85.297 E28.0732
G1 X137.525 Y85.965 E28.1511
G1 X138.865 Y86.768 E28.2290
G1 X140.119 Y87.698 E28.3069
G1 X141.276 Y88.747 E28.3848
G1 X142.325 Y89.904 E28.4628
G1 X143.256 Y91.158 E28.5407
G1 X144.058 Y92.498 E28.6186
G1 X144.726 Y93.910 E28.6965
G1 X145.252 Y95.380 E28.7744
G1 X145.632 Y96.895 E28.8523
G1 X145.861 Y98.440 E28.9302
G1 X145.937 Y100.000 E29.0082
G1 X145.861 Y101.560 E29.0861
G1 X145.632 Y103.105 E29.1640
G1 X145.252 Y104.620 E29.2419
G1 X144.726 Y106.090 E29.3198
G1 X144.058 Y107.502 E29.3978
G1 X143.256 Y108.842 E29.4757
G1 X142.325 Y110.096 E29.5536
G1 X141.276 Y111.253 E29.6315
G1 X140.621 Y111.847 E29.6756
;segType:Perimeter
G0 X141.642 Y110.992 F10800
G1 X140.951 Y111.009 E29.7101 F360
G1 X139.865 Y111.992 E29.7832
G1 X138.642 Y112.899 E29.8592
G1 X137.336 Y113.682 E29.9351
G1 X135.960 Y114.332 E30.0111
G1 X134.527 Y114.845 E30.0870
G1 X133.050 Y115.215 E30.1630
G1 X131.544 Y115.439 E30.2389
G1 X130.024 Y115.513 E30.3149
G1 X128.503 Y115.439 E30.3908
G1 X126.997 Y115.215 E30.4668
G1 X125.521 Y114.845 E30.5427
G1 X124.087 Y114.332 E30.6187
G1 X122.711 Y113.682 E30.6946
G1 X121.405 Y112.899 E30.7706
G1 X120.182 Y111.992 E30.8466
G1 X119.054 Y110.970 E30.9225
G1 X118.032 Y109.841 E30.9985
G1 X117.125 Y108.619 E31.0744
G1 X116.343 Y107.313 E31.1504
G1 X115.691 Y105.937 E31.2263
G1 X115.178 Y104.503 E31.3023
G1 X114.809 Y103.026 E31.3782
G1 X114.585 Y101.521 E31.4542
G1 X114.511 Y100.000 E31.5301
G1 X114.585 Y98.479 E31.6061
G1 X114.809 Y96.974 E31.6820
G1 X115.178 Y95.497 E31.7580
G1 X115.691 Y94.063 E31.8340
G1 X116.343 Y92.687 E31.9099
G1 X117.125 Y91.381 E31.9859
G1 X118.032 Y90.159 E32.0618
G1 X119.054 Y89.030 E32.1378
G1 X120.182 Y88.008 E32.2137
G1 X121.405 Y87.101 E32.2897
G1 X122.711 Y86.318 E32.3656
G1 X124.087 Y85.668 E32.4416
G1 X125.521 Y85.155 E32.5175
G1 X126.997 Y84.785 E32.5935
G1 X128.503 Y84.561 E32.6694
G1 X130.024 Y84.487 E32.7454
G1 X131.544 Y84.561 E32.8213
G1 X133.050 Y84.785 E32.8973
G1 X134.527 Y85.155 E32.9732
G1 X135.960 Y85.668 E33.0492
G1 X137.336 Y86.318 E33.1251
G1 X138.642 Y87.101 E33.2011
G1 X139.865 Y88.008 E33.2770
G1 X140.993 Y89.030 E33.3530
G1 X142.016 Y90.159 E33.4290
G1 X142.923 Y91.381 E33.5049
G1 X143.705 Y92.687 E33.5809
G1 X144.356 Y94.063 E33.6568
G1 X144.869 Y95.497 E33.7328
G1 X145.239 Y96.974 E33.8087
G1 X145.462 Y98.479 E33.8847
G1 X145.537 Y100.000 E33.9606
G1 X145.462 Y101.521 E34.0366
G1 X145.239 Y103.026 E34.1125
G1 X144.869 Y104.503 E34.1885
G1 X144.356 Y105.937 E34.2644
G1 X143.705 Y107.313 E34.3404
G1 X142.923 Y108.619 E34.4163
G1 X142.016 Y109.841 E34.4923
G1 X141.032 Y110.927 E34.5654
G1 X141.015 Y111.619
;segType:HShell
G0 X145.228 Y110.867 F10800
G1 X141.006 Y115.091 E34.8633 F600
G0 X139.351 Y116.203 F10800
G1 X146.135 Y109.415 E35.3422 F600
G0 X147.841 Y105.532 F10800
G1 X135.571 Y117.809 E36.2081 F600
G0 X132.088 Y118.576 F10800
G1 X135.542 Y115.119 E36.4519 F600
G1 X136.432 Y114.773
G1 X132.748 Y118.459 E36.7119
G1 X133.408 Y118.343
G1 X137.462 Y114.286 E36.9981
G0 X136.376 Y117.548 F10800
G1 X147.623 Y106.295 E37.7918 F600
G0 X147.215 Y107.247 F10800
G1 X137.230 Y117.238 E38.4965 F600
G0 X138.768 Y113.523 F10800
G1 X134.067 Y118.227 E38.8283 F600
G1 X134.767 Y118.071
G1 X148.060 Y104.770 E39.7665
G1 X148.279 Y104.007
G1 X143.551 Y108.738 E40.1001
G0 X144.313 Y107.432 F10800
G1 X148.388 Y103.354 E40.3877 F600
G1 X148.477 Y102.721
G1 X144.801 Y106.399 E40.6472
G1 X145.146 Y105.510
G1 X148.566 Y102.088 E40.8885
G1 X148.655 Y101.455
G1 X145.447 Y104.665 E41.1149
G1 X145.629 Y103.940
G1 X148.676 Y100.890 E41.3300
G1 X148.676 Y100.346
G1 X145.811 Y103.214 E41.5323
G1 X145.914 Y102.567
G1 X148.676 Y99.803 E41.7273
G1 X148.676 Y99.259
G1 X146.008 Y101.928 E41.9156
G1 X146.073 Y101.320
G1 X148.676 Y98.715 E42.0993
G1 X148.612 Y98.236
G1 X146.101 Y100.748 E42.2765
G1 X146.129 Y100.176
G1 X148.545 Y97.759 E42.4470
G1 X148.478 Y97.282
G1 X146.120 Y99.641 E42.6134
G1 X146.095 Y99.123
G1 X148.411 Y96.806 E42.7768
G1 X148.344 Y96.329
G1 X146.069 Y98.605 E42.9374
G1 X146.015 Y98.115
G1 X148.247 Y95.882 E43.0949
G1 X148.126 Y95.459
G1 X145.945 Y97.642 E43.2488
G1 X145.874 Y97.168
G1 X148.005 Y95.037 E43.3992
G1 X147.883 Y94.614
G1 X145.791 Y96.708 E43.5469
G1 X145.682 Y96.273
G1 X147.762 Y94.191 E43.6937
G1 X147.641 Y93.769
G1 X145.573 Y95.838 E43.8396
G1 X145.464 Y95.403
G1 X147.492 Y93.375 E43.9827
G1 X147.324 Y92.998
G1 X145.327 Y94.996 E44.1236
G1 X145.184 Y94.596
G1 X147.157 Y92.622 E44.2628
G1 X146.989 Y92.246
G1 X145.041 Y94.195 E44.4004
G1 X144.894 Y93.798
G1 X146.822 Y91.870 E44.5364
G1 X146.654 Y91.493
G1 X144.720 Y93.429 E44.6729
G1 X144.545 Y93.060
G1 X146.475 Y91.129 E44.8091
G1 X146.266 Y90.794
G1 X144.371 Y92.691 E44.9428
G1 X144.190 Y92.328
G1 X146.057 Y90.460 E45.0746
G1 X145.848 Y90.125
G1 X143.986 Y91.988 E45.2060
G1 X143.782 Y91.648
G1 X145.639 Y89.791 E45.3370
G1 X145.429 Y89.456
G1 X143.578 Y91.308 E45.4676
G1 X143.368 Y90.975
G1 X145.220 Y89.121 E45.5984
G1 X144.985 Y88.813
G1 X143.137 Y90.663 E45.7288
G1 X142.905 Y90.350
G1 X144.737 Y88.517 E45.8581
G1 X144.489 Y88.222
G1 X142.673 Y90.038 E45.9863
G1 X142.437 Y89.731
G1 X144.241 Y87.926 E46.1136
G1 X143.993 Y87.630
G1 X142.179 Y89.445 E46.2416
G1 X141.921 Y89.160
G1 X143.745 Y87.335 E46.3703
G1 X143.497 Y87.039
G1 X141.662 Y88.875 E46.4998
G1 X141.402 Y88.591
G1 X143.214 Y86.778 E46.6277
G1 X142.928 Y86.520
G1 X141.117 Y88.333 E46.7555
G1 X140.832 Y88.074
G1 X142.642 Y86.263 E46.8833
G1 X142.356 Y86.005
G1 X140.547 Y87.816 E47.0110
G1 X140.262 Y87.557
G1 X142.070 Y85.748 E47.1387
G1 X141.784 Y85.490
G1 X139.951 Y87.324 E47.2680
G1 X139.639 Y87.093
G1 X141.493 Y85.238 E47.3989
G1 X141.168 Y85.019
G1 X139.327 Y86.861 E47.5289
G1 X139.014 Y86.630
G1 X140.844 Y84.800 E47.6580
G1 X140.519 Y84.581
G1 X138.678 Y86.423 E47.7879
G1 X138.338 Y86.219
G1 X140.194 Y84.362 E47.9189
G1 X139.870 Y84.143
G1 X137.998 Y86.015 E48.0510
G1 X137.658 Y85.811
G1 X139.545 Y83.924 E48.1841
G1 X139.201 Y83.724
G1 X137.293 Y85.634 E48.3188
G1 X136.923 Y85.459
G1 X138.836 Y83.546 E48.4538
G1 X138.470 Y83.367
G1 X136.554 Y85.285 E48.5890
G1 X136.185 Y85.111
G1 X138.105 Y83.189 E48.7246
G1 X137.740 Y83.011
G1 X135.785 Y84.967 E48.8626
G1 X135.384 Y84.824
G1 X137.374 Y82.833 E49.0030
G1 X137.007 Y82.657
G1 X134.984 Y84.681 E49.1458
G1 X134.574 Y84.547
G1 X136.596 Y82.524 E49.2885
G1 X136.186 Y82.390
G1 X134.139 Y84.439 E49.4330
G1 X133.704 Y84.330
G1 X135.776 Y82.257 E49.5792
G1 X135.365 Y82.124
G1 X133.269 Y84.221 E49.7271
G1 X132.805 Y84.142
G1 X134.955 Y81.990 E49.8789
G1 X134.545 Y81.857
G1 X132.332 Y84.071 E50.0350
G1 X131.859 Y84.001
G1 X134.083 Y81.776 E50.1920
G1 X133.620 Y81.694
G1 X131.365 Y83.951 E50.3512
G1 X130.847 Y83.926
G1 X133.158 Y81.613 E50.5143
G1 X132.696 Y81.531
G1 X130.329 Y83.901 E50.6814
G1 X129.788 Y83.897
G1 X132.234 Y81.450 E50.8541
G1 X131.744 Y81.397
G1 X129.217 Y83.925 E51.0324
G1 X128.645 Y83.953
G1 X131.219 Y81.378 E51.2140
G1 X130.694 Y81.360
G1 X128.031 Y84.025 E51.4020
G1 X127.393 Y84.119
G1 X130.168 Y81.342 E51.5979
G1 X129.643 Y81.323
G1 X126.737 Y84.231 E51.8030
G0 X126.625 Y81.624 F10800
G1 X122.495 Y85.756 E52.0944 F600
G0 X123.526 Y85.269 F10800
G1 X127.257 Y81.536 E52.3578 F600
G1 X127.864 Y81.472
G1 X124.431 Y84.907 E52.6000
G1 X125.277 Y84.604
G1 X128.471 Y81.408 E52.8254
G1 X129.079 Y81.345
G1 X126.012 Y84.413 E53.0419
G0 X121.161 Y86.548 F10800
G1 X125.901 Y81.805 E53.3764 F600
G1 X125.177 Y81.985
G1 X111.976 Y95.194 E54.3081
G1 X111.829 Y95.885
G1 X116.568 Y91.143 E54.6425
G0 X115.777 Y92.478 F10800
G1 X111.682 Y96.575 E54.9315 F600
G1 X111.536 Y97.266
G1 X115.289 Y93.511 E55.1964
G0 X115.106 Y88.800 F10800
G1 X118.820 Y85.083 E55.4586 F600
G0 X120.465 Y83.981 F10800
G1 X113.949 Y90.501 E55.9184 F600
G0 X113.332 Y91.663 F10800
G1 X121.750 Y83.239 E56.5126 F600
G0 X122.684 Y82.849 F10800
G1 X112.827 Y92.711 E57.2082 F600
G1 X112.516 Y93.566
G1 X123.595 Y82.480 E57.9902
G1 X124.453 Y82.166
G1 X112.205 Y94.422 E58.8546
G0 X114.928 Y94.416 F10800
G1 X111.475 Y97.871 E59.0984 F600
G1 X111.434 Y98.456
G1 X114.625 Y95.263 E59.3236
G1 X114.435 Y95.997
G1 X111.393 Y99.041 E59.5382
G1 X111.352 Y99.625
G1 X114.253 Y96.723 E59.7430
G1 X114.142 Y97.377
G1 X111.338 Y100.183 E59.9409
G1 X111.374 Y100.691
G1 X114.047 Y98.016 E60.1295
G1 X113.977 Y98.630
G1 X111.410 Y101.199 E60.3107
G1 X111.445 Y101.707
G1 X113.949 Y99.202 E60.4875
G1 X113.921 Y99.774
G1 X111.481 Y102.216 E60.6597
G1 X111.530 Y102.710
G1 X113.925 Y100.313 E60.8287
G1 X113.951 Y100.832
G1 X111.626 Y103.158 E60.9928
G1 X111.721 Y103.606
G1 X113.976 Y101.350 E61.1520
G1 X114.027 Y101.843
G1 X111.816 Y104.055 E61.3079
G1 X111.912 Y104.503
G1 X114.097 Y102.317 E61.4622
G1 X114.167 Y102.791
G1 X112.007 Y104.952 E61.6146
G1 X112.130 Y105.373
G1 X114.247 Y103.254 E61.7640
G1 X114.356 Y103.689
G1 X112.275 Y105.771 E61.9109
G1 X112.420 Y106.170
G1 X114.465 Y104.124 E62.0552
G1 X114.574 Y104.559
G1 X112.565 Y106.569 E62.1970
G1 X112.710 Y106.967
G1 X114.708 Y104.969 E62.3380
G1 X114.851 Y105.369
G1 X112.855 Y107.366 E62.4788
G1 X113.018 Y107.747
G1 X114.994 Y105.770 E62.6183
G1 X115.138 Y106.170
G1 X113.206 Y108.102 E62.7546
G1 X113.395 Y108.457
G1 X115.312 Y106.539 E62.8899
G1 X115.487 Y106.908
G1 X113.584 Y108.812 E63.0242
G1 X113.773 Y109.167
G1 X115.662 Y107.277 E63.1576
G1 X115.840 Y107.642
G1 X113.961 Y109.522 E63.2901
G1 X114.150 Y109.877
G1 X116.044 Y107.982 E63.4238
G1 X116.248 Y108.322
G1 X114.375 Y110.195 E63.5559
G1 X114.604 Y110.510
G1 X116.451 Y108.662 E63.6863
G1 X116.659 Y108.998
G1 X114.833 Y110.825 E63.8152
G1 X115.062 Y111.140
G1 X116.891 Y109.310 E63.9443
G1 X117.122 Y109.622
G1 X115.291 Y111.455 E64.0735
G1 X115.520 Y111.770
G1 X117.354 Y109.934 E64.2030
G1 X117.587 Y110.245
G1 X115.756 Y112.077 E64.3322
G1 X116.023 Y112.353
G1 X117.846 Y110.530 E64.4608
G1 X118.104 Y110.815
G1 X116.291 Y112.630 E64.5888
G1 X116.558 Y112.906
G1 X118.363 Y111.100 E64.7162
G1 X118.621 Y111.386
G1 X116.825 Y113.183 E64.8430
G1 X117.092 Y113.460
G1 X118.905 Y111.645 E64.9710
G1 X119.191 Y111.903
G1 X117.359 Y113.736 E65.1003
G1 X117.642 Y113.996
G1 X119.476 Y112.162 E65.2297
G1 X119.761 Y112.420
G1 X117.947 Y114.235 E65.3577
G1 X118.253 Y114.473
G1 X120.069 Y112.655 E65.4859
G1 X120.382 Y112.887
G1 X118.558 Y114.712 E65.6146
G1 X118.863 Y114.950
G1 X120.694 Y113.118 E65.7438
G1 X121.006 Y113.350
G1 X119.168 Y115.189 E65.8735
G1 X119.473 Y115.427
G1 X121.340 Y113.560 E66.0053
G1 X121.680 Y113.763
G1 X119.806 Y115.638 E66.1375
G1 X120.150 Y115.837
G1 X122.020 Y113.967 E66.2695
G1 X122.360 Y114.171
G1 X120.495 Y116.036 E66.4010
G1 X120.840 Y116.235
G1 X122.723 Y114.351 E66.5339
G1 X123.092 Y114.526
G1 X121.184 Y116.434 E66.6686
G1 X121.529 Y116.633
G1 X123.461 Y114.700 E66.8049
G1 X123.830 Y114.875
G1 X121.879 Y116.826 E66.9426
G1 X122.267 Y116.983
G1 X124.228 Y115.020 E67.0810
G1 X124.628 Y115.164
G1 X122.654 Y117.139 E67.2204
G1 X123.041 Y117.296
G1 X125.029 Y115.307 E67.3606
G1 X125.436 Y115.443
G1 X123.428 Y117.452 E67.5023
G1 X123.815 Y117.608
G1 X125.871 Y115.552 E67.6474
G1 X126.305 Y115.661
G1 X124.203 Y117.765 E67.7958
G1 X124.632 Y117.879
G1 X126.740 Y115.770 E67.9446
G1 X127.201 Y115.852
G1 X125.067 Y117.987 E68.0951
G1 X125.502 Y118.096
G1 X127.674 Y115.923 E68.2484
G1 X128.148 Y115.993
G1 X125.937 Y118.204 E68.4044
G1 X126.372 Y118.313
G1 X128.638 Y116.046 E68.5643
G1 X129.156 Y116.072
G1 X126.812 Y118.417 E68.7297
G1 X127.303 Y118.469
G1 X129.674 Y116.097 E68.8970
G1 X130.209 Y116.105
G1 X127.795 Y118.521 E69.0674
G1 X128.287 Y118.572
G1 X130.781 Y116.077 E69.2433
G1 X131.352 Y116.049
G1 X128.779 Y118.624 E69.4250
G1 X129.271 Y118.676
G1 X131.961 Y115.984 E69.6148
G1 X132.599 Y115.889
G1 X129.819 Y118.671 E69.8110
G1 X130.383 Y118.651
G1 X133.247 Y115.785 E70.0132
G0 X134.697 Y115.422 F10800
G1 X131.509 Y118.612 E70.2382 F600
G1 X130.946 Y118.631
G1 X133.972 Y115.603 E70.4517
; ------------------------------------
; Layer #1
; ------------------------------------
G21 ; mm
G90 ; abs
G92 E0 ; reset extr
M106 S0
G0 F4800 E-1.0000
G0 F300 Z0.600
G0 X136.187 Y114.192 F10800
G0 X138.403 Y112.780
G0 X147.266 Y107.133
G0 F4800 E0.0000
;segType:HShell
G1 X144.937 Y104.803 E0.1643 F3600
G1 X144.794 Y105.204
G1 X147.098 Y107.509 E0.3269
G1 X146.931 Y107.885
G1 X144.651 Y105.604 E0.4878
G1 X144.507 Y106.004
G1 X146.763 Y108.262 E0.6471
;segType:Perimeter
G0 X146.809 Y108.455 F10800
G1 X147.034 Y109.109 E0.6816 F2160
G1 X145.637 Y111.344 E0.8131
G1 X143.907 Y113.407 E0.9474
G1 X141.906 Y115.208 E1.0817
G1 X139.673 Y116.714 E1.2160
G1 X137.254 Y117.894 E1.3504
G1 X134.693 Y118.726 E1.4847
G1 X132.041 Y119.194 E1.6190
G1 X129.350 Y119.288 E1.7534
G1 X126.672 Y119.006 E1.8877
G1 X124.060 Y118.355 E2.0220
G1 X121.563 Y117.346 E2.1564
G1 X119.231 Y116.000 E2.2907
G1 X117.110 Y114.342 E2.4250
G1 X115.239 Y112.405 E2.5594
G1 X113.657 Y110.227 E2.6937
G1 X112.393 Y107.850 E2.8280
G1 X111.472 Y105.320 E2.9623
G1 X110.912 Y102.686 E3.0967
G1 X110.724 Y100.000 E3.2310
G1 X110.912 Y97.314 E3.3653
G1 X111.472 Y94.680 E3.4997
G1 X112.393 Y92.150 E3.6340
G1 X113.657 Y89.773 E3.7683
G1 X115.239 Y87.595 E3.9027
G1 X117.110 Y85.658 E4.0370
G1 X119.231 Y84.000 E4.1713
G1 X121.563 Y82.654 E4.3056
G1 X124.060 Y81.645 E4.4400
G1 X126.672 Y80.994 E4.5743
G1 X129.350 Y80.712 E4.7086
G1 X132.041 Y80.806 E4.8430
G1 X134.693 Y81.274 E4.9773
G1 X137.254 Y82.106 E5.1116
G1 X139.673 Y83.286 E5.2460
G1 X141.906 Y84.792 E5.3803
G1 X143.907 Y86.593 E5.5146
G1 X145.637 Y88.656 E5.6490
G1 X147.064 Y90.940 E5.7833
G1 X148.159 Y93.399 E5.9176
G1 X148.902 Y95.987 E6.0519
G1 X149.276 Y98.654 E6.1863
G1 X149.276 Y101.346 E6.3206
G1 X148.902 Y104.013 E6.4549
G1 X148.159 Y106.601 E6.5893
G1 X147.088 Y109.008 E6.7207
G1 X146.420 Y109.187
;segType:Loop
G0 X146.165 Y109.745 F10800
G1 X145.313 Y111.108 E6.8009 F3600
G1 X143.618 Y113.128 E6.9324
G1 X141.659 Y114.892 E7.0640
G1 X139.473 Y116.366 E7.1955
G1 X137.103 Y117.522 E7.3271
G1 X134.596 Y118.337 E7.4586
G1 X131.999 Y118.795 E7.5902
G1 X129.364 Y118.887 E7.7217
G1 X126.742 Y118.611 E7.8532
G1 X124.184 Y117.973 E7.9848
G1 X121.739 Y116.985 E8.1163
G1 X119.456 Y115.667 E8.2479
G1 X117.378 Y114.044 E8.3794
G1 X115.547 Y112.147 E8.5109
G1 X113.997 Y110.014 E8.6425
G1 X112.759 Y107.687 E8.7740
G1 X111.857 Y105.209 E8.9055
G1 X111.309 Y102.630 E9.0371
G1 X111.125 Y100.000 E9.1686
G1 X111.309 Y97.370 E9.3001
G1 X111.857 Y94.791 E9.4317
G1 X112.759 Y92.313 E9.5632
G1 X113.997 Y89.986 E9.6948
G1 X115.547 Y87.853 E9.8263
G1 X117.378 Y85.956 E9.9578
G1 X119.456 Y84.333 E10.0894
G1 X121.739 Y83.015 E10.2209
G1 X124.184 Y82.027 E10.3525
G1 X126.742 Y81.389 E10.4840
G1 X129.364 Y81.113 E10.6155
G1 X131.999 Y81.205 E10.7471
G1 X134.596 Y81.663 E10.8786
G1 X137.103 Y82.478 E11.0102
G1 X139.473 Y83.634 E11.1417
G1 X141.659 Y85.108 E11.2732
G1 X143.618 Y86.872 E11.4048
G1 X145.313 Y88.892 E11.5363
G1 X146.710 Y91.128 E11.6679
G1 X147.783 Y93.536 E11.7994
G1 X148.509 Y96.071 E11.9309
G1 X148.876 Y98.682 E12.0625
G1 X148.876 Y101.318 E12.1940
G1 X148.509 Y103.929 E12.3255
G1 X147.783 Y106.463 E12.4571
G1 X146.710 Y108.872 E12.5886
G1 X146.267 Y109.582 E12.6304
G0 X143.397 Y111.025 F10800
G0 X140.710 Y111.450
;segType:HShell
G1 X142.828 Y113.570 E12.7799 F3600
G1 X143.115 Y113.312
G1 X140.995 Y111.191 E12.9295
G1 X141.264 Y110.917
G1 X143.401 Y113.055 E13.0803
G1 X143.658 Y112.769
G1 X141.523 Y110.632 E13.2310
;segType:Perimeter
G0 X141.334 Y110.684 F10800
G1 X140.643 Y110.701 E13.2655 F2160
G1 X139.589 Y111.656 E13.3364
G1 X138.401 Y112.537 E13.4102
G1 X137.131 Y113.298 E13.4841
G1 X135.794 Y113.930 E13.5579
G1 X134.400 Y114.429 E13.6317
G1 X132.965 Y114.789 E13.7055
G1 X131.501 Y115.005 E13.7794
G1 X130.024 Y115.078 E13.8532
G1 X128.546 Y115.005 E13.9270
G1 X127.082 Y114.789 E14.0008
G1 X125.647 Y114.429 E14.0746
G1 X124.254 Y113.930 E14.1485
G1 X122.916 Y113.298 E14.2223
G1 X121.647 Y112.537 E14.2961
G1 X120.459 Y111.656 E14.3699
G1 X119.362 Y110.662 E14.4437
G1 X118.368 Y109.566 E14.5176
G1 X117.487 Y108.377 E14.5914
G1 X116.726 Y107.108 E14.6652
G1 X116.094 Y105.770 E14.7390
G1 X115.595 Y104.377 E14.8129
G1 X115.235 Y102.941 E14.8867
G1 X115.018 Y101.478 E14.9605
G1 X114.946 Y100.000 E15.0343
G1 X115.018 Y98.522 E15.1082
G1 X115.235 Y97.059 E15.1820
G1 X115.595 Y95.623 E15.2558
G1 X116.094 Y94.230 E15.3296
G1 X116.726 Y92.892 E15.4035
G1 X117.487 Y91.623 E15.4773
G1 X118.368 Y90.434 E15.5511
G1 X119.362 Y89.338 E15.6249
G1 X120.459 Y88.344 E15.6987
G1 X121.647 Y87.463 E15.7726
G1 X122.916 Y86.702 E15.8464
G1 X124.254 Y86.070 E15.9202
G1 X125.647 Y85.571 E15.9940
G1 X127.082 Y85.211 E16.0679
G1 X128.546 Y84.995 E16.1417
G1 X130.024 Y84.922 E16.2155
G1 X131.501 Y84.995 E16.2893
G1 X132.965 Y85.211 E16.3631
G1 X134.400 Y85.571 E16.4369
G1 X135.794 Y86.070 E16.5108
G1 X137.131 Y86.702 E16.5846
G1 X138.401 Y87.463 E16.6584
G1 X139.589 Y88.344 E16.7322
G1 X140.685 Y89.338 E16.8061
G1 X141.679 Y90.434 E16.8799
G1 X142.561 Y91.623 E16.9537
G1 X143.321 Y92.892 E17.0275
G1 X143.954 Y94.230 E17.1013
G1 X144.453 Y95.623 E17.1752
G1 X144.812 Y97.058 E17.2490
G1 X145.029 Y98.522 E17.3228
G1 X145.102 Y100.000 E17.3966
G1 X145.029 Y101.478 E17.4705
G1 X144.812 Y102.941 E17.5443
G1 X144.453 Y104.377 E17.6181
G1 X143.954 Y105.770 E17.6919
G1 X143.321 Y107.108 E17.7658
G1 X142.561 Y108.377 E17.8396
G1 X141.679 Y109.566 E17.9134
G1 X140.724 Y110.619 E17.9844
G1 X140.707 Y111.311
;segType:Loop
G0 X140.171 Y111.669 F10800
G1 X139.843 Y111.965 E18.0064 F3600
G1 X138.623 Y112.870 E18.0822
G1 X137.320 Y113.651 E18.1580
G1 X135.947 Y114.300 E18.2338
G1 X134.517 Y114.812 E18.3096
G1 X133.043 Y115.182 E18.3853
G1 X131.541 Y115.404 E18.4611
G1 X130.024 Y115.479 E18.5369
G1 X128.507 Y115.404 E18.6127
G1 X127.004 Y115.182 E18.6884
G1 X125.531 Y114.812 E18.7642
G1 X124.101 Y114.300 E18.8400
G1 X122.728 Y113.651 E18.9158
G1 X121.424 Y112.870 E18.9916
G1 X120.205 Y111.965 E19.0673
G1 X119.079 Y110.945 E19.1431
G1 X118.059 Y109.820 E19.2189
G1 X117.154 Y108.600 E19.2947
G1 X116.373 Y107.297 E19.3705
G1 X115.724 Y105.924 E19.4463
G1 X115.212 Y104.493 E19.5221
G1 X114.843 Y103.020 E19.5979
G1 X114.620 Y101.517 E19.6736
G1 X114.545 Y100.000 E19.7494
G1 X114.620 Y98.483 E19.8252
G1 X114.843 Y96.980 E19.9010
G1 X115.212 Y95.507 E19.9768
G1 X115.724 Y94.076 E20.0526
G1 X116.373 Y92.703 E20.1283
G1 X117.154 Y91.400 E20.2041
G1 X118.059 Y90.180 E20.2799
G1 X119.079 Y89.055 E20.3557
G1 X120.205 Y88.035 E20.4315
G1 X121.424 Y87.130 E20.5073
G1 X122.728 Y86.349 E20.5831
G1 X124.100 Y85.700 E20.6588
G1 X125.531 Y85.188 E20.7346
G1 X127.004 Y84.818 E20.8104
G1 X128.507 Y84.596 E20.8862
G1 X130.024 Y84.521 E20.9620
G1 X131.541 Y84.596 E21.0377
G1 X133.043 Y84.818 E21.1135
G1 X134.517 Y85.188 E21.1893
G1 X135.947 Y85.700 E21.2651
G1 X137.320 Y86.349 E21.3409
G1 X138.623 Y87.130 E21.4167
G1 X139.843 Y88.035 E21.4924
G1 X140.968 Y89.055 E21.5682
G1 X141.989 Y90.180 E21.6440
G1 X142.894 Y91.400 E21.7198
G1 X143.675 Y92.703 E21.7956
G1 X144.324 Y94.076 E21.8713
G1 X144.836 Y95.507 E21.9471
G1 X145.205 Y96.980 E22.0229
G1 X145.428 Y98.483 E22.0987
G1 X145.502 Y100.000 E22.1745
G1 X145.428 Y101.517 E22.2503
G1 X145.205 Y103.020 E22.3261
G1 X144.836 Y104.493 E22.4018
G1 X144.324 Y105.924 E22.4776
G1 X143.675 Y107.297 E22.5534
G1 X142.894 Y108.600 E22.6292
G1 X141.989 Y109.820 E22.7050
G1 X140.968 Y110.945 E22.7808
G1 X140.313 Y111.539 E22.8249
;segType:HShell
G0 X140.425 Y111.708 F10800
G1 X142.542 Y113.827 E22.9744 F3600
G1 X142.256 Y114.085
G1 X140.139 Y111.967 E23.1238
G1 X139.843 Y112.214
G1 X141.970 Y114.342 E23.2739
G1 X141.684 Y114.600
G1 X139.531 Y112.446 E23.4258
G1 X139.219 Y112.677
G1 X141.380 Y114.839 E23.5783
G1 X141.055 Y115.058
G1 X138.907 Y112.909 E23.7299
G1 X138.582 Y113.128
G1 X140.730 Y115.277 E23.8815
G1 X140.406 Y115.496
G1 X138.242 Y113.332 E24.0341
G1 X137.903 Y113.535
G1 X140.081 Y115.715 E24.1879
G1 X139.756 Y115.934
G1 X137.563 Y113.739 E24.3427
G1 X137.206 Y113.926
G1 X139.432 Y116.153 E24.4997
G1 X139.074 Y116.338
G1 X136.837 Y114.101 E24.6576
G1 X136.468 Y114.275
G1 X138.708 Y116.517 E24.8157
G1 X138.343 Y116.695
G1 X136.099 Y114.450 E24.9740
G1 X135.705 Y114.599
G1 X137.977 Y116.873 E25.1344
G1 X137.612 Y117.051
G1 X135.305 Y114.743 E25.2972
G1 X134.905 Y114.886
G1 X137.247 Y117.230 E25.4625
G1 X136.863 Y117.390
G1 X134.498 Y115.023 E25.6294
G1 X134.064 Y115.132
G1 X136.453 Y117.523 E25.7981
G1 X136.043 Y117.656
G1 X133.629 Y115.241 E25.9684
G1 X133.194 Y115.350
G1 X135.632 Y117.790 E26.1405
G1 X135.222 Y117.923
G1 X132.731 Y115.430 E26.3163
G1 X132.257 Y115.500
G1 X134.812 Y118.056 E26.4966
G1 X134.383 Y118.171
G1 X131.784 Y115.571 E26.6801
G1 X131.287 Y115.617
G1 X133.921 Y118.253 E26.8659
G1 X133.459 Y118.334
G1 X130.769 Y115.643 E27.0558
G1 X130.251 Y115.668
G1 X132.997 Y118.416 E27.2496
G1 X132.535 Y118.497
G1 X129.703 Y115.663 E27.4494
G1 X129.131 Y115.635
G1 X132.073 Y118.578 E27.6570
G1 X131.561 Y118.610
G1 X128.560 Y115.607 E27.8688
G1 X127.930 Y115.521
G1 X131.035 Y118.628 E28.0880
G1 X130.510 Y118.646
G1 X127.292 Y115.427 E28.3151
G1 X126.612 Y115.290
G1 X129.985 Y118.665 E28.5531
G1 X129.460 Y118.683
G1 X125.887 Y115.108 E28.8053
G1 X125.110 Y114.874
G1 X128.866 Y118.633 E29.0705
G1 X128.259 Y118.569
G1 X124.263 Y114.571 E29.3525
G0 X123.277 Y117.391 F10800
G1 X112.625 Y106.732 E30.1043 F3600
G1 X112.936 Y107.588
G1 X122.365 Y117.023 E30.7698
G0 X121.301 Y116.502 F10800
G1 X113.547 Y108.743 E31.3170 F3600
G0 X114.165 Y109.905 F10800
G1 X120.016 Y115.760 E31.7300 F3600
G0 X117.954 Y114.240 F10800
G1 X115.612 Y111.896 E31.8953 F3600
G0 X116.490 Y107.881 F10800
G1 X111.587 Y102.975 E32.2413 F3600
G1 X111.734 Y103.666
G1 X117.596 Y109.531 E32.6550
G0 X123.285 Y114.136 F10800
G1 X127.652 Y118.506 E32.9632 F3600
G1 X127.045 Y118.442
G1 X122.135 Y113.529 E33.3097
G0 X120.486 Y112.424 F10800
G1 X126.372 Y118.313 E33.7251 F3600
G1 X125.648 Y118.132
G1 X111.881 Y104.357 E34.6968
G1 X112.027 Y105.047
G1 X124.924 Y117.952 E35.6070
G1 X124.188 Y117.759
G1 X112.313 Y105.877 E36.4451
G0 X115.884 Y106.731 F10800
G1 X111.489 Y102.333 E36.7553 F3600
G1 X111.448 Y101.748
G1 X115.450 Y105.753 E37.0377
G1 X115.147 Y104.905
G1 X111.407 Y101.164 E37.3016
G1 X111.366 Y100.579
G1 X114.914 Y104.129 E37.5520
G1 X114.733 Y103.404
G1 X111.326 Y99.995 E37.7924
G1 X111.362 Y99.487
G1 X114.597 Y102.724 E38.0208
G1 X114.502 Y102.085
G1 X111.397 Y98.978 E38.2399
G1 X111.433 Y98.470
G1 X114.417 Y101.456 E38.4505
G1 X114.389 Y100.884
G1 X111.468 Y97.962 E38.6566
G1 X111.504 Y97.454
G1 X114.361 Y100.312 E38.8583
G1 X114.357 Y99.764
G1 X111.593 Y96.999 E39.0533
G1 X111.688 Y96.550
G1 X114.382 Y99.246 E39.2435
G1 X114.408 Y98.728
G1 X111.783 Y96.102 E39.4287
G1 X111.878 Y95.653
G1 X114.455 Y98.232 E39.6106
G1 X114.525 Y97.758
G1 X111.974 Y95.205 E39.7907
G1 X112.079 Y94.766
G1 X114.595 Y97.284 E39.9683
G1 X114.676 Y96.821
G1 X112.224 Y94.368 E40.1413
G1 X112.369 Y93.969
G1 X114.785 Y96.386 E40.3118
G1 X114.894 Y95.952
G1 X112.514 Y93.570 E40.4798
G1 X112.659 Y93.172
G1 X115.003 Y95.517 E40.6452
G1 X115.141 Y95.111
G1 X112.804 Y92.773 E40.8101
G1 X112.952 Y92.377
G1 X115.284 Y94.710 E40.9747
G1 X115.427 Y94.310
G1 X113.141 Y92.022 E41.1361
G1 X113.329 Y91.667
G1 X115.578 Y93.917 E41.2948
G1 X115.752 Y93.548
G1 X113.518 Y91.312 E41.4525
G1 X113.707 Y90.957
G1 X115.927 Y93.178 E41.6092
G1 X116.102 Y92.809
G1 X113.895 Y90.602 E41.7649
G1 X114.084 Y90.247
G1 X116.289 Y92.453 E41.9205
G1 X116.493 Y92.113
G1 X114.296 Y89.915 E42.0756
G1 X114.524 Y89.600
G1 X116.697 Y91.774 E42.2289
G1 X116.901 Y91.434
G1 X114.753 Y89.285 E42.3805
G1 X114.982 Y88.970
G1 X117.120 Y91.110 E42.5314
G1 X117.352 Y90.797
G1 X115.211 Y88.655 E42.6825
G1 X115.440 Y88.340
G1 X117.584 Y90.485 E42.8338
G1 X117.815 Y90.173
G1 X115.668 Y88.025 E42.9853
G1 X115.930 Y87.743
G1 X118.063 Y89.878 E43.1359
G1 X118.322 Y89.592
G1 X116.197 Y87.467 E43.2858
G1 X116.464 Y87.190
G1 X118.580 Y89.307 E43.4351
G1 X118.839 Y89.022
G1 X116.731 Y86.914 E43.5838
G1 X116.999 Y86.637
G1 X119.114 Y88.753 E43.7331
G1 X119.399 Y88.495
G1 X117.266 Y86.361 E43.8837
G1 X117.536 Y86.087
G1 X119.684 Y88.236 E44.0353
G1 X119.969 Y87.978
G1 X117.841 Y85.848 E44.1855
G1 X118.146 Y85.610
G1 X120.271 Y87.736 E44.3355
G1 X120.583 Y87.505
G1 X118.451 Y85.371 E44.4859
G1 X118.756 Y85.133
G1 X120.895 Y87.273 E44.6369
G1 X121.207 Y87.042
G1 X119.062 Y84.895 E44.7883
G1 X119.367 Y84.656
G1 X121.538 Y86.828 E44.9415
G1 X121.878 Y86.625
G1 X119.685 Y84.431 E45.0963
G1 X120.030 Y84.232
G1 X122.218 Y86.421 E45.2507
G1 X122.558 Y86.217
G1 X120.375 Y84.033 E45.4047
G1 X120.719 Y83.834
G1 X122.920 Y86.036 E45.5601
G1 X123.289 Y85.862
G1 X121.064 Y83.635 E45.7171
G1 X121.409 Y83.436
G1 X123.658 Y85.687 E45.8759
G1 X124.028 Y85.513
G1 X121.753 Y83.237 E46.0364
G1 X122.131 Y83.072
G1 X124.428 Y85.370 E46.1985
G1 X124.828 Y85.227
G1 X122.518 Y82.915 E46.3615
G1 X122.906 Y82.759
G1 X125.229 Y85.083 E46.5255
G1 X125.642 Y84.953
G1 X123.293 Y82.603 E46.6913
G1 X123.680 Y82.446
G1 X126.077 Y84.844 E46.8604
G1 X126.512 Y84.736
G1 X124.067 Y82.290 E47.0330
G1 X124.480 Y82.159
G1 X126.946 Y84.627 E47.2070
G1 X127.418 Y84.555
G1 X124.915 Y82.051 E47.3836
G1 X125.350 Y81.942
G1 X127.891 Y84.485 E47.5630
G1 X128.365 Y84.414
G1 X125.785 Y81.834 E47.7450
G1 X126.220 Y81.725
G1 X128.871 Y84.377 E47.9321
G1 X129.389 Y84.352
G1 X126.656 Y81.617 E48.1250
G1 X127.132 Y81.549
G1 X129.907 Y84.327 E48.3209
G1 X130.467 Y84.343
G1 X127.623 Y81.497 E48.5216
G1 X128.115 Y81.446
G1 X131.038 Y84.371 E48.7279
G1 X131.616 Y84.405
G1 X128.607 Y81.394 E48.9403
G1 X129.099 Y81.342
G1 X132.254 Y84.499 E49.1629
G1 X132.892 Y84.594
G1 X129.623 Y81.323 E49.3936
G1 X130.186 Y81.342
G1 X133.591 Y84.749 E49.6339
G1 X134.316 Y84.931
G1 X130.749 Y81.362 E49.8857
G1 X131.312 Y81.382
G1 X135.119 Y85.191 E50.1544
G0 X134.497 Y81.849 F10800
G1 X148.136 Y95.497 E51.1170 F3600
G1 X147.918 Y94.734
G1 X135.290 Y82.099 E52.0082
G1 X136.095 Y82.361
G1 X147.699 Y93.971 E52.8271
G1 X147.367 Y93.096
G1 X136.900 Y82.622 E53.5659
G0 X137.920 Y83.099 F10800
G1 X146.931 Y92.115 E54.2019 F3600
G0 X146.452 Y91.092 F10800
G1 X138.980 Y83.616 E54.7292 F3600
G0 X136.983 Y85.968 F10800
G1 X132.517 Y81.500 E55.0443 F3600
G1 X131.875 Y81.401
G1 X135.965 Y85.494 E55.3330
G0 X138.202 Y86.644 F10800
G1 X133.177 Y81.616 E55.6876 F3600
G1 X133.837 Y81.733
G1 X140.082 Y87.981 E56.1284
G0 X140.423 Y84.516 F10800
G1 X145.545 Y89.640 E56.4898 F3600
G0 X143.543 Y87.094 F10800
G1 X143.343 Y86.893 E56.5039 F3600
G0 X144.059 Y93.048 F10800
G1 X148.508 Y97.500 E56.8179 F3600
G1 X148.419 Y96.867
G1 X143.383 Y91.828 E57.1733
G0 X142.053 Y89.953 F10800
G1 X148.330 Y96.234 E57.6164 F3600
G0 X144.533 Y94.066 F10800
G1 X148.597 Y98.133 E57.9032 F3600
G1 X148.676 Y98.756
G1 X144.836 Y94.913 E58.1743
G1 X145.094 Y95.716
G1 X148.676 Y99.300 E58.4271
G1 X148.676 Y99.844
G1 X145.276 Y96.441 E58.6671
G1 X145.431 Y97.140
G1 X148.676 Y100.387 E58.8961
G1 X148.676 Y100.931
G1 X145.526 Y97.779 E59.1185
G1 X145.620 Y98.417
G1 X148.655 Y101.454 E59.3327
G1 X148.588 Y101.931
G1 X145.653 Y98.994 E59.5398
G1 X145.681 Y99.566
G1 X148.521 Y102.407 E59.7403
G1 X148.454 Y102.884
G1 X145.696 Y100.125 E59.9349
G1 X145.671 Y100.643
G1 X148.387 Y103.361 E60.1266
G1 X148.320 Y103.838
G1 X145.646 Y101.161 E60.3154
G1 X145.608 Y101.668
G1 X148.205 Y104.266 E60.4987
G1 X148.083 Y104.688
G1 X145.537 Y102.141 E60.6783
G1 X145.467 Y102.614
G1 X147.962 Y105.111 E60.8544
G1 X147.841 Y105.534
G1 X145.394 Y103.086 E61.0271
G1 X145.286 Y103.520
G1 X147.720 Y105.956 E61.1989
G1 X147.599 Y106.379
G1 X145.177 Y103.955 E61.3698
G1 X145.068 Y104.390
G1 X147.433 Y106.757 E61.5367
G0 X146.596 Y108.638 F10800
G1 X144.332 Y106.373 E61.6965 F3600
G1 X144.158 Y106.743
G1 X146.402 Y108.988 E61.8549
G1 X146.193 Y109.323
G1 X143.983 Y107.112 E62.0108
G1 X143.802 Y107.474
G1 X145.984 Y109.657 E62.1648
G1 X145.775 Y109.992
G1 X143.598 Y107.814 E62.3184
G1 X143.394 Y108.154
G1 X145.565 Y110.326 E62.4717
G1 X145.356 Y110.661
G1 X143.190 Y108.494 E62.6245
G1 X142.977 Y108.824
G1 X145.147 Y110.995 E62.7777
G1 X144.899 Y111.290
G1 X142.745 Y109.136 E62.9297
G1 X142.514 Y109.448
G1 X144.651 Y111.586 E63.0805
G1 X144.403 Y111.882
G1 X142.282 Y109.760 E63.2302
G1 X142.040 Y110.061
G1 X144.154 Y112.177 E63.3794
G1 X143.906 Y112.473
G1 X141.781 Y110.347 E63.5294
; ------------------------------------
; Layer #2
; ------------------------------------
G21 ; mm
G90 ; abs
G92 E0 ; reset extr
M106 S0
;segType:HShell
G0 F4800 E-1.0000
G0 F300 Z0.900
G0 X138.290 Y116.721 F10800
G0 F4800 E0.0000
G1 X146.778 Y108.228 E0.5991 F3600
;segType:Perimeter
G0 X146.809 Y108.455 F10800
G1 X147.034 Y109.109 E0.6336 F2160
G1 X145.637 Y111.344 E0.7650
G1 X143.907 Y113.407 E0.8994
G1 X141.906 Y115.208 E1.0337
G1 X139.673 Y116.714 E1.1680
G1 X137.254 Y117.894 E1.3024
G1 X134.693 Y118.726 E1.4367
G1 X132.041 Y119.194 E1.5710
G1 X129.350 Y119.288 E1.7054
G1 X126.672 Y119.006 E1.8397
G1 X124.060 Y118.355 E1.9740
G1 X121.563 Y117.346 E2.1084
G1 X119.231 Y116.000 E2.2427
G1 X117.110 Y114.342 E2.3770
G1 X115.239 Y112.405 E2.5114
G1 X113.657 Y110.227 E2.6457
G1 X112.393 Y107.850 E2.7800
G1 X111.472 Y105.320 E2.9143
G1 X110.912 Y102.686 E3.0487
G1 X110.724 Y100.000 E3.1830
G1 X110.912 Y97.314 E3.3173
G1 X111.472 Y94.680 E3.4517
G1 X112.393 Y92.150 E3.5860
G1 X113.657 Y89.773 E3.7203
G1 X115.239 Y87.595 E3.8547
G1 X117.110 Y85.658 E3.9890
G1 X119.231 Y84.000 E4.1233
G1 X121.563 Y82.654 E4.2576
G1 X124.060 Y81.645 E4.3920
G1 X126.672 Y80.994 E4.5263
G1 X129.350 Y80.712 E4.6606
G1 X132.041 Y80.806 E4.7950
G1 X134.693 Y81.274 E4.9293
G1 X137.254 Y82.106 E5.0636
G1 X139.673 Y83.286 E5.1980
G1 X141.906 Y84.792 E5.3323
G1 X143.907 Y86.593 E5.4666
G1 X145.637 Y88.656 E5.6010
G1 X147.064 Y90.940 E5.7353
G1 X148.159 Y93.399 E5.8696
G1 X148.902 Y95.987 E6.0039
G1 X149.276 Y98.654 E6.1383
G1 X149.276 Y101.346 E6.2726
G1 X148.902 Y104.013 E6.4069
G1 X148.159 Y106.601 E6.5413
G1 X147.088 Y109.008 E6.6727
G1 X146.420 Y109.187
;segType:Loop
G0 X146.165 Y109.745 F10800
G1 X145.313 Y111.108 E6.7529 F3600
G1 X143.618 Y113.128 E6.8844
G1 X141.659 Y114.892 E7.0160
G1 X139.473 Y116.366 E7.1475
G1 X137.103 Y117.522 E7.2791
G1 X134.596 Y118.337 E7.4106
G1 X131.999 Y118.795 E7.5421
G1 X129.364 Y118.887 E7.6737
G1 X126.742 Y118.611 E7.8052
G1 X124.184 Y117.973 E7.9368
G1 X121.739 Y116.985 E8.0683
G1 X119.456 Y115.667 E8.1999
G1 X117.378 Y114.044 E8.3314
G1 X115.547 Y112.147 E8.4629
G1 X113.997 Y110.014 E8.5945
G1 X112.759 Y107.687 E8.7260
G1 X111.857 Y105.209 E8.8575
G1 X111.309 Y102.630 E8.9891
G1 X111.125 Y100.000 E9.1206
G1 X111.309 Y97.370 E9.2521
G1 X111.857 Y94.791 E9.3837
G1 X112.759 Y92.313 E9.5152
G1 X113.997 Y89.986 E9.6468
G1 X115.547 Y87.853 E9.7783
G1 X117.378 Y85.956 E9.9098
G1 X119.456 Y84.333 E10.0414
G1 X121.739 Y83.015 E10.1729
G1 X124.184 Y82.027 E10.3044
G1 X126.742 Y81.389 E10.4360
G1 X129.364 Y81.113 E10.5675
G1 X131.999 Y81.205 E10.6991
G1 X134.596 Y81.663 E10.8306
G1 X137.103 Y82.478 E10.9622
G1 X139.473 Y83.634 E11.0937
G1 X141.659 Y85.108 E11.2252
G1 X143.618 Y86.872 E11.3568
G1 X145.313 Y88.892 E11.4883
G1 X146.710 Y91.128 E11.6199
G1 X147.783 Y93.536 E11.7514
G1 X148.509 Y96.071 E11.8829
G1 X148.876 Y98.682 E12.0145
G1 X148.876 Y101.318 E12.1460
G1 X148.509 Y103.929 E12.2775
G1 X147.783 Y106.463 E12.4091
G1 X146.710 Y108.872 E12.5406
G1 X146.267 Y109.582 E12.5824
G0 X146.852 Y108.185 F10800
G0 X148.388 Y103.354
;segType:HShell
G1 X141.187 Y110.559 E13.0906 F3600
;segType:Perimeter
G0 X141.124 Y110.473 F10800
G1 X140.432 Y110.490 E13.1251 F2160
G1 X139.400 Y111.425 E13.1946
G1 X138.235 Y112.289 E13.2669
G1 X136.991 Y113.035 E13.3393
G1 X135.680 Y113.655 E13.4116
G1 X134.314 Y114.144 E13.4840
G1 X132.907 Y114.496 E13.5564
G1 X131.472 Y114.709 E13.6287
G1 X130.024 Y114.780 E13.7011
G1 X128.575 Y114.709 E13.7735
G1 X127.140 Y114.496 E13.8458
G1 X125.734 Y114.144 E13.9182
G1 X124.368 Y113.655 E13.9905
G1 X123.057 Y113.035 E14.0629
G1 X121.812 Y112.289 E14.1353
G1 X120.647 Y111.425 E14.2076
G1 X119.573 Y110.451 E14.2800
G1 X118.599 Y109.376 E14.3524
G1 X117.735 Y108.212 E14.4247
G1 X116.989 Y106.968 E14.4971
G1 X116.369 Y105.656 E14.5695
G1 X115.880 Y104.291 E14.6418
G1 X115.528 Y102.883 E14.7142
G1 X115.315 Y101.449 E14.7865
G1 X115.244 Y100.000 E14.8589
G1 X115.315 Y98.551 E14.9313
G1 X115.528 Y97.117 E15.0036
G1 X115.880 Y95.709 E15.0760
G1 X116.369 Y94.344 E15.1484
G1 X116.989 Y93.032 E15.2207
G1 X117.735 Y91.789 E15.2931
G1 X118.599 Y90.624 E15.3655
G1 X119.573 Y89.549 E15.4378
G1 X120.647 Y88.575 E15.5102
G1 X121.812 Y87.711 E15.5826
G1 X123.057 Y86.965 E15.6549
G1 X124.368 Y86.345 E15.7273
G1 X125.734 Y85.856 E15.7997
G1 X127.140 Y85.504 E15.8720
G1 X128.575 Y85.291 E15.9444
G1 X130.024 Y85.220 E16.0167
G1 X131.472 Y85.291 E16.0891
G1 X132.907 Y85.504 E16.1615
G1 X134.314 Y85.856 E16.2338
G1 X135.680 Y86.345 E16.3062
G1 X136.991 Y86.965 E16.3785
G1 X138.235 Y87.711 E16.4509
G1 X139.400 Y88.575 E16.5233
G1 X140.475 Y89.549 E16.5956
G1 X141.449 Y90.624 E16.6680
G1 X142.313 Y91.789 E16.7404
G1 X143.059 Y93.032 E16.8127
G1 X143.679 Y94.344 E16.8851
G1 X144.168 Y95.709 E16.9575
G1 X144.520 Y97.117 E17.0298
G1 X144.733 Y98.551 E17.1022
G1 X144.804 Y100.000 E17.1746
G1 X144.733 Y101.449 E17.2469
G1 X144.520 Y102.883 E17.3193
G1 X144.168 Y104.291 E17.3917
G1 X143.679 Y105.656 E17.4640
G1 X143.059 Y106.968 E17.5364
G1 X142.313 Y108.212 E17.6087
G1 X141.449 Y109.376 E17.6811
G1 X140.514 Y110.409 E17.7506
G1 X140.496 Y111.101
;segType:Loop
G0 X139.960 Y111.458 F10800
G1 X139.654 Y111.735 E17.7712 F3600
G1 X138.458 Y112.623 E17.8455
G1 X137.180 Y113.389 E17.9199
G1 X135.833 Y114.025 E17.9942
G1 X134.430 Y114.527 E18.0685
G1 X132.985 Y114.889 E18.1428
G1 X131.512 Y115.108 E18.2171
G1 X130.024 Y115.181 E18.2915
G1 X128.536 Y115.108 E18.3658
G1 X127.062 Y114.889 E18.4401
G1 X125.617 Y114.527 E18.5144
G1 X124.215 Y114.025 E18.5888
G1 X122.868 Y113.389 E18.6631
G1 X121.590 Y112.623 E18.7374
G1 X120.394 Y111.735 E18.8117
G1 X119.289 Y110.735 E18.8861
G1 X118.289 Y109.631 E18.9604
G1 X117.402 Y108.434 E19.0347
G1 X116.636 Y107.157 E19.1090
G1 X115.999 Y105.810 E19.1833
G1 X115.497 Y104.407 E19.2577
G1 X115.135 Y102.962 E19.3320
G1 X114.917 Y101.488 E19.4063
G1 X114.843 Y100.000 E19.4807
G1 X114.917 Y98.512 E19.5550
G1 X115.135 Y97.038 E19.6293
G1 X115.497 Y95.593 E19.7036
G1 X115.999 Y94.190 E19.7780
G1 X116.636 Y92.843 E19.8523
G1 X117.402 Y91.566 E19.9266
G1 X118.289 Y90.369 E20.0010
G1 X119.289 Y89.265 E20.0753
G1 X120.394 Y88.265 E20.1496
G1 X121.590 Y87.377 E20.2239
G1 X122.868 Y86.611 E20.2982
G1 X124.215 Y85.975 E20.3726
G1 X125.617 Y85.473 E20.4469
G1 X127.062 Y85.111 E20.5212
G1 X128.536 Y84.892 E20.5955
G1 X130.024 Y84.819 E20.6699
G1 X131.511 Y84.892 E20.7442
G1 X132.985 Y85.111 E20.8185
G1 X134.430 Y85.473 E20.8928
G1 X135.833 Y85.975 E20.9672
G1 X137.180 Y86.611 E21.0415
G1 X138.458 Y87.377 E21.1158
G1 X139.654 Y88.265 E21.1901
G1 X140.758 Y89.265 E21.2645
G1 X141.758 Y90.369 E21.3388
G1 X142.646 Y91.566 E21.4131
G1 X143.412 Y92.843 E21.4874
G1 X144.049 Y94.190 E21.5617
G1 X144.551 Y95.593 E21.6361
G1 X144.913 Y97.039 E21.7104
G1 X145.131 Y98.512 E21.7847
G1 X145.204 Y100.000 E21.8591
G1 X145.131 Y101.488 E21.9334
G1 X144.913 Y102.961 E22.0077
G1 X144.551 Y104.407 E22.0821
G1 X144.049 Y105.810 E22.1564
G1 X143.412 Y107.157 E22.2307
G1 X142.646 Y108.434 E22.3050
G1 X141.758 Y109.631 E22.3794
G1 X140.758 Y110.735 E22.4537
G1 X140.102 Y111.329 E22.4978
;segType:HShell
G0 X140.586 Y111.161 F10800
G1 X133.408 Y118.343 E23.0044 F3600
G0 X135.571 Y117.809 F10800
G1 X147.841 Y105.532 E23.8704 F3600
G1 X148.060 Y104.770
G1 X134.767 Y118.071 E24.8086
G1 X134.067 Y118.227
G1 X148.279 Y104.007 E25.8115
G0 X148.477 Y102.721 F10800
G1 X143.047 Y108.154 E26.1948 F3600
G0 X144.238 Y105.875 F10800
G1 X148.655 Y101.455 E26.5065 F3600
G1 X148.566 Y102.088
G1 X143.752 Y106.905 E26.8463
G0 X145.228 Y110.867 F10800
G1 X141.006 Y115.091 E27.1443 F3600
G0 X139.351 Y116.203 F10800
G1 X146.135 Y109.415 E27.6231 F3600
G0 X147.215 Y107.247 F10800
G1 X137.230 Y117.238 E28.3278 F3600
G1 X136.376 Y117.548
G1 X147.623 Y106.295 E29.1215
G0 X144.541 Y105.028 F10800
G1 X148.676 Y100.890 E29.4134 F3600
G1 X148.676 Y100.346
G1 X144.804 Y104.221 E29.6867
G1 X144.985 Y103.496
G1 X148.676 Y99.803 E29.9472
G1 X148.676 Y99.259
G1 X145.139 Y102.798 E30.1968
G1 X145.234 Y102.160
G1 X148.676 Y98.715 E30.4398
G1 X148.612 Y98.236
G1 X145.328 Y101.521 E30.6715
G1 X145.358 Y100.948
G1 X148.545 Y97.759 E30.8964
G1 X148.478 Y97.282
G1 X145.386 Y100.376 E31.1146
G1 X145.396 Y99.822
G1 X148.411 Y96.806 E31.3274
G1 X148.344 Y96.329
G1 X145.370 Y99.304 E31.5372
G1 X145.345 Y98.786
G1 X148.247 Y95.882 E31.7420
G1 X148.126 Y95.459
G1 X145.300 Y98.287 E31.9415
G1 X145.230 Y97.813
G1 X148.005 Y95.037 E32.1373
G1 X147.883 Y94.614
G1 X145.160 Y97.339 E32.3295
G1 X145.078 Y96.877
G1 X147.762 Y94.191 E32.5189
G1 X147.641 Y93.769
G1 X144.970 Y96.442 E32.7075
G1 X144.861 Y96.007
G1 X147.492 Y93.375 E32.8932
G1 X147.324 Y92.998
G1 X144.752 Y95.572 E33.0747
G1 X144.612 Y95.169
G1 X147.157 Y92.622 E33.2543
G1 X146.989 Y92.246
G1 X144.468 Y94.768 E33.4322
G1 X144.325 Y94.368
G1 X146.822 Y91.870 E33.6084
G1 X146.654 Y91.493
G1 X144.170 Y93.979 E33.7838
G1 X143.995 Y93.610
G1 X146.475 Y91.129 E33.9588
G1 X146.266 Y90.794
G1 X143.821 Y93.241 E34.1313
G1 X143.646 Y92.872
G1 X146.057 Y90.460 E34.3014
G1 X145.848 Y90.125
G1 X143.452 Y92.522 E34.4705
G1 X143.249 Y92.182
G1 X145.639 Y89.791 E34.6392
G1 X145.429 Y89.456
G1 X143.045 Y91.842 E34.8075
G1 X142.841 Y91.502
G1 X145.220 Y89.121 E34.9754
G1 X144.985 Y88.813
G1 X142.613 Y91.186 E35.1428
G1 X142.382 Y90.874
G1 X144.737 Y88.517 E35.3090
G1 X144.489 Y88.222
G1 X142.150 Y90.562 E35.4741
G1 X141.919 Y90.250
G1 X144.241 Y87.926 E35.6380
G1 X143.993 Y87.630
G1 X141.661 Y89.964 E35.8026
G1 X141.402 Y89.679
G1 X143.745 Y87.335 E35.9679
G1 X143.497 Y87.039
G1 X141.144 Y89.393 E36.1340
G1 X140.884 Y89.110
G1 X143.214 Y86.778 E36.2985
G1 X142.928 Y86.520
G1 X140.599 Y88.851 E36.4629
G1 X140.314 Y88.593
G1 X142.642 Y86.263 E36.6272
G1 X142.356 Y86.005
G1 X140.028 Y88.334 E36.7915
G1 X139.740 Y88.079
G1 X142.070 Y85.748 E36.9560
G1 X141.784 Y85.490
G1 X139.428 Y87.848 E37.1223
G1 X139.115 Y87.616
G1 X141.493 Y85.238 E37.2901
G1 X141.168 Y85.019
G1 X138.803 Y87.385 E37.4570
G1 X138.484 Y87.160
G1 X140.844 Y84.800 E37.6235
G1 X140.519 Y84.581
G1 X138.144 Y86.956 E37.7911
G1 X137.805 Y86.753
G1 X140.194 Y84.362 E37.9597
G1 X139.870 Y84.143
G1 X137.465 Y86.549 E38.1294
G1 X137.112 Y86.358
G1 X139.545 Y83.924 E38.3011
G1 X139.201 Y83.724
G1 X136.743 Y86.184 E38.4746
G1 X136.374 Y86.009
G1 X138.836 Y83.546 E38.6484
G1 X138.470 Y83.367
G1 X136.005 Y85.835 E38.8224
G1 X135.612 Y85.683
G1 X138.105 Y83.189 E38.9984
G1 X137.740 Y83.011
G1 X135.212 Y85.540 E39.1768
G1 X134.812 Y85.397
G1 X137.374 Y82.833 E39.3576
G1 X137.007 Y82.657
G1 X134.405 Y85.260 E39.5412
G1 X133.970 Y85.151
G1 X136.596 Y82.524 E39.7266
G1 X136.186 Y82.390
G1 X133.535 Y85.042 E39.9136
G1 X133.101 Y84.933
G1 X135.776 Y82.257 E40.1024
G1 X135.365 Y82.124
G1 X132.634 Y84.856 E40.2952
G1 X132.161 Y84.786
G1 X134.955 Y81.990 E40.4924
G1 X134.545 Y81.857
G1 X131.688 Y84.716 E40.6940
G1 X131.184 Y84.676
G1 X134.083 Y81.776 E40.8986
G1 X133.620 Y81.694
G1 X130.666 Y84.650 E41.1070
G1 X130.148 Y84.625
G1 X133.158 Y81.613 E41.3195
G1 X132.696 Y81.531
G1 X129.590 Y84.640 E41.5387
G1 X129.018 Y84.668
G1 X132.234 Y81.450 E41.7657
G1 X131.744 Y81.397
G1 X128.438 Y84.704 E41.9990
G1 X127.800 Y84.799
G1 X131.219 Y81.378 E42.2403
G1 X130.694 Y81.360
G1 X127.162 Y84.894 E42.4895
G1 X126.456 Y85.056
G1 X130.168 Y81.342 E42.7515
G1 X129.643 Y81.323
G1 X125.731 Y85.238 E43.0277
G1 X124.913 Y85.512
G1 X129.079 Y81.345 E43.3216
G1 X128.471 Y81.408
G1 X124.052 Y85.830 E43.6335
G0 X123.022 Y86.317 F10800
G1 X127.864 Y81.472 E43.9753 F3600
G1 X127.257 Y81.536
G1 X121.744 Y87.052 E44.3643
G0 X121.750 Y83.239 F10800
G1 X113.332 Y91.663 E44.9585 F3600
G0 X113.949 Y90.501 F10800
G1 X120.465 Y83.981 E45.4183 F3600
G0 X118.820 Y85.083 F10800
G1 X115.106 Y88.800 E45.6805 F3600
G0 X112.827 Y92.711 F10800
G1 X122.684 Y82.849 E46.3761 F3600
G0 X123.595 Y82.480 F10800
G1 X112.516 Y93.566 E47.1581 F3600
G1 X112.205 Y94.422
G1 X124.453 Y82.166 E48.0225
G1 X125.177 Y81.985
G1 X111.976 Y95.194 E48.9542
G1 X111.829 Y95.885
G1 X125.901 Y81.805 E49.9473
G1 X126.625 Y81.624
G1 X111.682 Y96.575 E51.0019
G1 X111.536 Y97.266
G1 X117.072 Y91.727 E51.3926
G0 X116.338 Y93.005 F10800
G1 X111.475 Y97.871 E51.7359 F3600
G1 X111.434 Y98.456
G1 X115.850 Y94.037 E52.0476
G1 X115.533 Y94.898
G1 X111.393 Y99.041 E52.3398
G1 X111.352 Y99.625
G1 X115.260 Y95.715 E52.6156
G1 X115.078 Y96.441
G1 X111.338 Y100.183 E52.8795
G1 X111.374 Y100.691
G1 X114.917 Y97.146 E53.1296
G1 X114.822 Y97.784
G1 X111.410 Y101.199 E53.3704
G1 X111.445 Y101.707
G1 X114.728 Y98.423 E53.6021
G1 X114.692 Y99.002
G1 X111.481 Y102.216 E53.8287
G1 X111.530 Y102.710
G1 X114.664 Y99.574 E54.0499
G1 X114.650 Y100.132
G1 X111.626 Y103.158 E54.2633
G1 X111.721 Y103.606
G1 X114.675 Y100.651 E54.4718
G1 X114.701 Y101.169
G1 X111.816 Y104.055 E54.6753
G1 X111.912 Y104.503
G1 X114.742 Y101.672 E54.8750
G1 X114.812 Y102.145
G1 X112.007 Y104.952 E55.0730
G1 X112.130 Y105.373
G1 X114.882 Y102.619 E55.2672
G1 X114.960 Y103.085
G1 X112.275 Y105.771 E55.4567
G1 X112.420 Y106.170
G1 X115.068 Y103.520 E55.6436
G1 X115.177 Y103.955
G1 X112.565 Y106.569 E55.8280
G1 X112.710 Y106.967
G1 X115.286 Y104.390 E56.0098
G1 X115.423 Y104.796
G1 X112.855 Y107.366 E56.1911
G1 X113.018 Y107.747
G1 X115.567 Y105.197 E56.3710
G1 X115.710 Y105.597
G1 X113.206 Y108.102 E56.5477
G1 X113.395 Y108.457
G1 X115.862 Y105.989 E56.7218
G1 X116.037 Y106.358
G1 X113.584 Y108.812 E56.8949
G1 X113.773 Y109.167
G1 X116.211 Y106.727 E57.0670
G1 X116.386 Y107.096
G1 X113.961 Y109.522 E57.2381
G1 X114.150 Y109.877
G1 X116.577 Y107.448 E57.4094
G1 X116.781 Y107.788
G1 X114.375 Y110.195 E57.5792
G1 X114.604 Y110.510
G1 X116.985 Y108.128 E57.7472
G1 X117.189 Y108.468
G1 X114.833 Y110.825 E57.9135
G1 X115.062 Y111.140
G1 X117.414 Y108.787 E58.0795
G1 X117.645 Y109.099
G1 X115.291 Y111.455 E58.2457
G1 X115.520 Y111.770
G1 X117.877 Y109.411 E58.4120
G1 X118.109 Y109.723
G1 X115.756 Y112.077 E58.5780
G1 X116.023 Y112.353
G1 X118.364 Y110.011 E58.7432
G1 X118.622 Y110.297
G1 X116.291 Y112.630 E58.9078
G1 X116.558 Y112.906
G1 X118.881 Y110.582 E59.0718
G1 X119.139 Y110.867
G1 X116.825 Y113.183 E59.2351
G1 X117.092 Y113.460
G1 X119.424 Y111.126 E59.3997
G1 X119.709 Y111.385
G1 X117.359 Y113.736 E59.5656
G1 X117.642 Y113.996
G1 X119.994 Y111.643 E59.7315
G1 X120.281 Y111.900
G1 X117.947 Y114.235 E59.8962
G1 X118.253 Y114.473
G1 X120.593 Y112.132 E60.0614
G1 X120.905 Y112.363
G1 X118.558 Y114.712 E60.2270
G1 X118.863 Y114.950
G1 X121.217 Y112.595 E60.3931
G1 X121.533 Y112.822
G1 X119.168 Y115.189 E60.5601
G1 X119.473 Y115.427
G1 X121.873 Y113.026 E60.7295
G1 X122.213 Y113.229
G1 X119.806 Y115.638 E60.8994
G1 X120.150 Y115.837
G1 X122.553 Y113.433 E61.0690
G1 X122.903 Y113.627
G1 X120.495 Y116.036 E61.2389
G1 X120.840 Y116.235
G1 X123.272 Y113.801 E61.4106
G1 X123.641 Y113.976
G1 X121.184 Y116.434 E61.5840
G1 X121.529 Y116.633
G1 X124.011 Y114.150 E61.7592
G1 X124.400 Y114.304
G1 X121.879 Y116.826 E61.9371
G1 X122.267 Y116.983
G1 X124.800 Y114.447 E62.1159
G1 X125.201 Y114.591
G1 X122.654 Y117.139 E62.2957
G1 X123.041 Y117.296
G1 X125.605 Y114.730 E62.4766
G1 X126.039 Y114.839
G1 X123.428 Y117.452 E62.6609
G1 X123.815 Y117.608
G1 X126.474 Y114.948 E62.8485
G1 X126.909 Y115.057
G1 X124.203 Y117.765 E63.0395
G1 X124.632 Y117.879
G1 X127.372 Y115.137 E63.2329
G1 X127.845 Y115.208
G1 X125.067 Y117.987 E63.4289
G1 X125.502 Y118.096
G1 X128.318 Y115.278 E63.6277
G1 X128.818 Y115.322
G1 X125.937 Y118.204 E63.8310
G1 X126.372 Y118.313
G1 X129.336 Y115.348 E64.0401
G1 X129.854 Y115.373
G1 X126.812 Y118.417 E64.2548
G1 X127.303 Y118.469
G1 X130.408 Y115.362 E64.4739
G1 X130.980 Y115.334
G1 X127.795 Y118.521 E64.6987
G1 X128.287 Y118.572
G1 X131.553 Y115.304 E64.9292
G1 X132.192 Y115.209
G1 X128.779 Y118.624 E65.1700
G1 X129.271 Y118.676
G1 X132.830 Y115.115 E65.4212
G1 X133.528 Y114.959
G1 X129.819 Y118.671 E65.6830
G1 X130.383 Y118.651
G1 X134.253 Y114.778 E65.9561
G1 X135.060 Y114.514
G1 X130.946 Y118.631 E66.2465
G1 X131.509 Y118.612
G1 X135.906 Y114.211 E66.5569
G0 X136.936 Y113.725 F10800
G1 X132.088 Y118.576 E66.8990 F3600
G1 X132.748 Y118.459
G1 X138.185 Y113.019 E67.2827
; ------------------------------------
; Layer #3
; ------------------------------------
G21 ; mm
G90 ; abs
G92 E0 ; reset extr
M106 S255
;segType:HShell
G0 F4800 E-1.0000
G0 F300 Z1.200
G0 X144.991 Y105.944 F10800
G0 F4800 E0.0000
G1 X144.252 Y105.206 E0.0521 F3600
G1 X144.109 Y105.606
G1 X144.834 Y106.331 E0.1032
G1 X144.659 Y106.700
G1 X143.950 Y105.991 E0.1533
G1 X143.775 Y106.360
G1 X144.484 Y107.069 E0.2033
G1 X144.310 Y107.438
G1 X143.601 Y106.729 E0.2533
G1 X143.426 Y107.098
G1 X144.118 Y107.791 E0.3022
G1 X143.915 Y108.131
G1 X143.227 Y107.442 E0.3507
G1 X143.023 Y107.782
G1 X143.711 Y108.471 E0.3993
;segType:Infill
G0 X143.786 Y108.345 F10800
G1 X146.726 Y108.345 E0.5459 F5400
;segType:Perimeter
G0 X146.809 Y108.455 F10800
G1 X147.034 Y109.109 E0.5805 F2160
G1 X145.637 Y111.344 E0.7119
G1 X143.907 Y113.407 E0.8463
G1 X141.906 Y115.208 E0.9806
G1 X139.673 Y116.714 E1.1149
G1 X137.254 Y117.894 E1.2493
G1 X134.693 Y118.726 E1.3836
G1 X132.041 Y119.194 E1.5179
G1 X129.350 Y119.288 E1.6523
G1 X126.672 Y119.006 E1.7866
G1 X124.060 Y118.355 E1.9209
G1 X121.563 Y117.346 E2.0553
G1 X119.231 Y116.000 E2.1896
G1 X117.110 Y114.342 E2.3239
G1 X115.239 Y112.405 E2.4582
G1 X113.657 Y110.227 E2.5926
G1 X112.393 Y107.850 E2.7269
G1 X111.472 Y105.320 E2.8612
G1 X110.912 Y102.686 E2.9956
G1 X110.724 Y100.000 E3.1299
G1 X110.912 Y97.314 E3.2642
G1 X111.472 Y94.680 E3.3986
G1 X112.393 Y92.150 E3.5329
G1 X113.657 Y89.773 E3.6672
G1 X115.239 Y87.595 E3.8015
G1 X117.110 Y85.658 E3.9359
G1 X119.231 Y84.000 E4.0702
G1 X121.563 Y82.654 E4.2045
G1 X124.060 Y81.645 E4.3389
G1 X126.672 Y80.994 E4.4732
G1 X129.350 Y80.712 E4.6075
G1 X132.041 Y80.806 E4.7419
G1 X134.693 Y81.274 E4.8762
G1 X137.254 Y82.106 E5.0105
G1 X139.673 Y83.286 E5.1449
G1 X141.906 Y84.792 E5.2792
G1 X143.907 Y86.593 E5.4135
G1 X145.637 Y88.656 E5.5479
G1 X147.064 Y90.940 E5.6822
G1 X148.159 Y93.399 E5.8165
G1 X148.902 Y95.987 E5.9508
G1 X149.276 Y98.654 E6.0852
G1 X149.276 Y101.346 E6.2195
G1 X148.902 Y104.013 E6.3538
G1 X148.159 Y106.601 E6.4882
G1 X147.088 Y109.008 E6.6196
G1 X146.420 Y109.187
;segType:Loop
G0 X146.165 Y109.745 F10800
G1 X145.313 Y111.108 E6.6998 F3600
G1 X143.618 Y113.128 E6.8313
G1 X141.659 Y114.892 E6.9629
G1 X139.473 Y116.366 E7.0944
G1 X137.103 Y117.522 E7.2260
G1 X134.596 Y118.337 E7.3575
G1 X131.999 Y118.795 E7.4890
G1 X129.364 Y118.887 E7.6206
G1 X126.742 Y118.611 E7.7521
G1 X124.184 Y117.973 E7.8837
G1 X121.739 Y116.985 E8.0152
G1 X119.456 Y115.667 E8.1467
G1 X117.378 Y114.044 E8.2783
G1 X115.547 Y112.147 E8.4098
G1 X113.997 Y110.014 E8.5414
G1 X112.759 Y107.687 E8.6729
G1 X111.857 Y105.209 E8.8044
G1 X111.309 Y102.630 E8.9360
G1 X111.125 Y100.000 E9.0675
G1 X111.309 Y97.370 E9.1990
G1 X111.857 Y94.791 E9.3306
G1 X112.759 Y92.313 E9.4621
G1 X113.997 Y89.986 E9.5937
G1 X115.547 Y87.853 E9.7252
G1 X117.378 Y85.956 E9.8567
G1 X119.456 Y84.333 E9.9883
G1 X121.739 Y83.015 E10.1198
G1 X124.184 Y82.027 E10.2513
G1 X126.742 Y81.389 E10.3829
G1 X129.364 Y81.113 E10.5144
G1 X131.999 Y81.205 E10.6460
G1 X134.596 Y81.663 E10.7775
G1 X137.103 Y82.478 E10.9091
G1 X139.473 Y83.634 E11.0406
G1 X141.659 Y85.108 E11.1721
G1 X143.618 Y86.872 E11.3037
G1 X145.313 Y88.892 E11.4352
G1 X146.710 Y91.128 E11.5668
G1 X147.783 Y93.536 E11.6983
G1 X148.509 Y96.071 E11.8298
G1 X148.876 Y98.682 E11.9614
G1 X148.876 Y101.318 E12.0929
G1 X148.509 Y103.929 E12.2244
G1 X147.783 Y106.463 E12.3560
G1 X146.710 Y108.872 E12.4875
G1 X146.267 Y109.582 E12.5293
;segType:HShell
G0 X143.507 Y108.811 F10800
G1 X142.819 Y108.122 E12.5778 F3600
G1 X142.613 Y108.459
G1 X143.287 Y109.134 E12.6254
G1 X143.056 Y109.447
G1 X142.381 Y108.771 E12.6731
G1 X142.149 Y109.084
G1 X142.824 Y109.759 E12.7207
G1 X142.593 Y110.071
G1 X141.918 Y109.396 E12.7683
G1 X141.679 Y109.701
G1 X142.347 Y110.369 E12.8154
G1 X142.089 Y110.654
G1 X141.421 Y109.986 E12.8626
G1 X141.162 Y110.271
G1 X141.830 Y110.940 E12.9097
G1 X141.572 Y111.225
G1 X140.904 Y110.556 E12.9569
;segType:Perimeter
G0 X140.974 Y110.323 F10800
G1 X140.282 Y110.340 E12.9914 F2160
G1 X139.266 Y111.261 E13.0599
G1 X138.117 Y112.113 E13.1312
G1 X136.891 Y112.848 E13.2025
G1 X135.598 Y113.459 E13.2738
G1 X134.252 Y113.941 E13.3452
G1 X132.866 Y114.288 E13.4165
G1 X131.451 Y114.498 E13.4878
G1 X130.024 Y114.568 E13.5591
G1 X128.596 Y114.498 E13.6305
G1 X127.182 Y114.288 E13.7018
G1 X125.795 Y113.941 E13.7731
G1 X124.449 Y113.459 E13.8444
G1 X123.157 Y112.848 E13.9158
G1 X121.930 Y112.113 E13.9871
G1 X120.782 Y111.261 E14.0584
G1 X119.723 Y110.301 E14.1297
G1 X118.763 Y109.242 E14.2011
G1 X117.911 Y108.094 E14.2724
G1 X117.176 Y106.867 E14.3437
G1 X116.565 Y105.575 E14.4150
G1 X116.083 Y104.229 E14.4864
G1 X115.736 Y102.842 E14.5577
G1 X115.526 Y101.428 E14.6290
G1 X115.456 Y100.000 E14.7003
G1 X115.526 Y98.572 E14.7717
G1 X115.736 Y97.158 E14.8430
G1 X116.083 Y95.771 E14.9143
G1 X116.565 Y94.425 E14.9857
G1 X117.176 Y93.133 E15.0570
G1 X117.911 Y91.906 E15.1283
G1 X118.763 Y90.758 E15.1996
G1 X119.723 Y89.699 E15.2710
G1 X120.782 Y88.739 E15.3423
G1 X121.930 Y87.887 E15.4136
G1 X123.157 Y87.152 E15.4849
G1 X124.449 Y86.541 E15.5563
G1 X125.795 Y86.059 E15.6276
G1 X127.182 Y85.712 E15.6989
G1 X128.596 Y85.502 E15.7702
G1 X130.024 Y85.432 E15.8415
G1 X131.451 Y85.502 E15.9129
G1 X132.866 Y85.712 E15.9842
G1 X134.253 Y86.059 E16.0555
G1 X135.598 Y86.541 E16.1268
G1 X136.891 Y87.152 E16.1982
G1 X138.117 Y87.887 E16.2695
G1 X139.266 Y88.739 E16.3408
G1 X140.325 Y89.699 E16.4121
G1 X141.285 Y90.758 E16.4835
G1 X142.137 Y91.906 E16.5548
G1 X142.872 Y93.133 E16.6261
G1 X143.483 Y94.425 E16.6974
G1 X143.965 Y95.771 E16.7688
G1 X144.312 Y97.158 E16.8401
G1 X144.522 Y98.572 E16.9114
G1 X144.592 Y100.000 E16.9828
G1 X144.522 Y101.428 E17.0541
G1 X144.312 Y102.842 E17.1254
G1 X143.965 Y104.229 E17.1967
G1 X143.483 Y105.575 E17.2681
G1 X142.872 Y106.867 E17.3394
G1 X142.137 Y108.094 E17.4107
G1 X141.285 Y109.242 E17.4820
G1 X140.364 Y110.259 E17.5505
G1 X140.346 Y110.950
;segType:Loop
G0 X139.810 Y111.308 F10800
G1 X139.520 Y111.571 E17.5700 F3600
G1 X138.340 Y112.446 E17.6433
G1 X137.080 Y113.201 E17.7166
G1 X135.752 Y113.829 E17.7899
G1 X134.369 Y114.324 E17.8632
G1 X132.944 Y114.681 E17.9365
G1 X131.491 Y114.897 E18.0098
G1 X130.024 Y114.969 E18.0830
G1 X128.557 Y114.897 E18.1563
G1 X127.104 Y114.681 E18.2296
G1 X125.679 Y114.324 E18.3029
G1 X124.296 Y113.829 E18.3762
G1 X122.968 Y113.201 E18.4495
G1 X121.708 Y112.446 E18.5228
G1 X120.528 Y111.571 E18.5960
G1 X119.439 Y110.585 E18.6693
G1 X118.453 Y109.496 E18.7426
G1 X117.578 Y108.317 E18.8159
G1 X116.823 Y107.057 E18.8892
G1 X116.195 Y105.729 E18.9625
G1 X115.700 Y104.345 E19.0358
G1 X115.343 Y102.920 E19.1091
G1 X115.127 Y101.467 E19.1823
G1 X115.055 Y100.000 E19.2556
G1 X115.127 Y98.533 E19.3289
G1 X115.343 Y97.080 E19.4022
G1 X115.700 Y95.655 E19.4755
G1 X116.195 Y94.271 E19.5488
G1 X116.823 Y92.943 E19.6221
G1 X117.578 Y91.683 E19.6954
G1 X118.453 Y90.504 E19.7687
G1 X119.439 Y89.415 E19.8419
G1 X120.528 Y88.429 E19.9152
G1 X121.708 Y87.554 E19.9885
G1 X122.968 Y86.799 E20.0618
G1 X124.296 Y86.171 E20.1351
G1 X125.679 Y85.676 E20.2084
G1 X127.104 Y85.318 E20.2817
G1 X128.557 Y85.103 E20.3549
G1 X130.024 Y85.031 E20.4282
G1 X131.491 Y85.103 E20.5015
G1 X132.944 Y85.318 E20.5748
G1 X134.369 Y85.676 E20.6481
G1 X135.752 Y86.171 E20.7214
G1 X137.080 Y86.799 E20.7946
G1 X138.340 Y87.554 E20.8679
G1 X139.520 Y88.429 E20.9412
G1 X140.608 Y89.415 E21.0145
G1 X141.594 Y90.504 E21.0878
G1 X142.469 Y91.683 E21.1611
G1 X143.225 Y92.943 E21.2344
G1 X143.853 Y94.271 E21.3077
G1 X144.348 Y95.655 E21.3810
G1 X144.705 Y97.080 E21.4542
G1 X144.920 Y98.533 E21.5275
G1 X144.992 Y100.000 E21.6008
G1 X144.920 Y101.467 E21.6741
G1 X144.705 Y102.920 E21.7474
G1 X144.348 Y104.345 E21.8207
G1 X143.853 Y105.729 E21.8940
G1 X143.225 Y107.057 E21.9673
G1 X142.469 Y108.317 E22.0406
G1 X141.594 Y109.496 E22.1138
G1 X140.608 Y110.585 E22.1871
G1 X139.952 Y111.179 E22.2313
;segType:HShell
G0 X140.635 Y110.831 F10800
G1 X141.303 Y111.499 E22.2784 F3600
G1 X141.018 Y111.758
G1 X140.349 Y111.089 E22.3256
G1 X140.064 Y111.348
G1 X140.732 Y112.016 E22.3727
G1 X140.447 Y112.275
G1 X139.779 Y111.606 E22.4199
G1 X139.479 Y111.850
G1 X140.154 Y112.525 E22.4675
G1 X139.842 Y112.757
G1 X139.167 Y112.081 E22.5151
G1 X138.855 Y112.313
G1 X139.530 Y112.988 E22.5627
G1 X139.218 Y113.220
G1 X138.543 Y112.545 E22.6104
G1 X138.211 Y112.756
G1 X138.899 Y113.445 E22.6589
G1 X138.559 Y113.648
G1 X137.871 Y112.960 E22.7074
G1 X137.531 Y113.164
G1 X138.219 Y113.852 E22.7560
G1 X137.879 Y114.056
G1 X137.192 Y113.368 E22.8045
G1 X136.824 Y113.544
G1 X137.533 Y114.253 E22.8546
G1 X137.164 Y114.427
G1 X136.455 Y113.718 E22.9046
G1 X136.086 Y113.893
G1 X136.795 Y114.602 E22.9546
G1 X136.425 Y114.776
G1 X135.707 Y114.058 E23.0053
G1 X135.307 Y114.201
G1 X136.045 Y114.940 E23.0573
G1 X135.645 Y115.083
G1 X134.907 Y114.344 E23.1094
G1 X134.506 Y114.488
G1 X135.244 Y115.226 E23.1615
G1 X134.844 Y115.369
G1 X134.079 Y114.603 E23.2155
G1 X133.644 Y114.712
G1 X134.422 Y115.491 E23.2704
G1 X133.987 Y115.599
G1 X133.209 Y114.821 E23.3253
G1 X132.756 Y114.912
G1 X133.552 Y115.708 E23.3815
G1 X133.113 Y115.813
G1 X132.283 Y114.982 E23.4402
G1 X131.809 Y115.052
G1 X132.640 Y115.883 E23.4988
G1 X132.167 Y115.953
G1 X131.319 Y115.106 E23.5586
G1 X130.801 Y115.131
G1 X131.693 Y116.023 E23.6215
G1 X131.184 Y116.057
G1 X130.283 Y115.157 E23.6851
G1 X129.739 Y115.155
G1 X130.666 Y116.083 E23.7505
G1 X130.148 Y116.108
G1 X129.167 Y115.127 E23.8197
G1 X128.595 Y115.099
G1 X129.589 Y116.093 E23.8898
G1 X129.017 Y116.065
G1 X127.964 Y115.011 E23.9641
G1 X127.326 Y114.917
G1 X128.446 Y116.037 E24.0432
G1 X127.808 Y115.942
G1 X126.637 Y114.771 E24.1258
G1 X126.484 Y115.706
G1 X125.114 Y114.335 E24.2225
G1 X124.268 Y114.032
G1 X125.759 Y115.524 E24.3277
;segType:Infill
G0 X125.705 Y115.511 F10800
G1 X125.705 Y118.146 E24.4592 F5400
G0 X129.751 Y118.673 F10800
G1 X129.751 Y116.101 E24.5875 F5400
;segType:HShell
G0 X127.170 Y115.848 F10800
G1 X125.912 Y114.589 E24.6763 F3600
G0 X124.982 Y115.290 F10800
G1 X123.248 Y113.555 E24.7987 F3600
G0 X122.043 Y113.981 F10800
G1 X116.038 Y107.973 E25.2224 F3600
;segType:Infill
G0 X116.261 Y108.345 F10800
G1 X113.335 Y108.345 E25.3684 F5400
G1 X113.569 Y108.784 E25.3933
G1 X113.569 Y91.216 E26.2698
G0 X113.070 Y92.154 F10800
G1 X115.962 Y92.154 E26.4140 F5400
G0 X114.383 Y96.202 F10800
G1 X111.762 Y96.202 E26.5448 F5400
G0 X111.343 Y100.249 F10800
G1 X113.922 Y100.249 E26.6735 F5400
G0 X117.615 Y89.726 F10800
G1 X117.615 Y86.025 E26.8581 F5400
G0 X115.610 Y88.106 F10800
G1 X119.180 Y88.106 E27.0362 F5400
G0 X121.660 Y86.249 F10800
G1 X121.660 Y83.291 E27.1838 F5400
G0 X127.803 Y84.058 F10800
G1 X120.331 Y84.058 E27.5566 F5400
G0 X125.705 Y84.489 F10800
G1 X125.705 Y81.854 E27.6881 F5400
G0 X129.751 Y83.899 F10800
G1 X129.751 Y81.327 E27.8164 F5400
G0 X133.796 Y81.725 F10800
G1 X133.796 Y84.353 E27.9475 F5400
;segType:HShell
G0 X134.444 Y84.515 F10800
G1 X135.990 Y86.062 E28.0566 F3600
G0 X137.020 Y86.549 F10800
G1 X135.247 Y84.775 E28.1817 F3600
G0 X134.291 Y85.450 F10800
G1 X133.014 Y84.173 E28.2718 F3600
G1 X132.376 Y84.078
G1 X133.566 Y85.268 E28.3557
G1 X133.719 Y84.333
G1 X135.114 Y85.730 E28.4542
G0 X136.093 Y85.078 F10800
G1 X138.327 Y87.313 E28.6119 F3600
G0 X138.295 Y86.193 F10800
G1 X143.836 Y91.737 E29.0029 F3600
G0 X143.478 Y93.010 F10800
G1 X145.252 Y94.786 E29.1281 F3600
G1 X144.949 Y93.939
G1 X142.714 Y91.703 E29.2859
G0 X142.651 Y90.008 F10800
G1 X140.021 Y87.376 E29.4715 F3600
;segType:Infill
G0 X141.887 Y85.583 F10800
G1 X141.887 Y89.123 E29.6481 F5400
G0 X140.867 Y88.106 F10800
G1 X144.392 Y88.106 E29.8240 F5400
G0 X145.932 Y90.261 F10800
G1 X145.932 Y97.560 E30.1881 F5400
;segType:HShell
G0 X145.852 Y97.018 F10800
G1 X144.576 Y95.740 E30.2782 F3600
G1 X144.296 Y94.917
G1 X145.692 Y96.314 E30.3767
;segType:Infill
G0 X145.664 Y96.202 F10800
G1 X148.326 Y96.202 E30.5095 F5400
G0 X145.539 Y104.297 F10800
G1 X148.196 Y104.297 E30.6420 F5400
G0 X148.676 Y100.249 F10800
G1 X146.125 Y100.249 E30.7693 F5400
G0 X145.932 Y102.440 F10800
G1 X145.932 Y109.739 E31.1335 F5400
G0 X143.974 Y112.393 F10800
G1 X140.317 Y112.393 E31.3159 F5400
G0 X141.887 Y114.417 F10800
G1 X141.887 Y110.877 E31.4925 F5400
G0 X137.842 Y114.079 F10800
G1 X137.842 Y116.939 E31.6353 F5400
G0 X133.796 Y118.275 F10800
G1 X133.796 Y115.647 E31.7663 F5400
G0 X138.865 Y116.440 F10800
G1 X121.195 Y116.440 E32.6479 F5400
G1 X121.660 Y116.709 E32.6747
G1 X121.660 Y113.751 E32.8222
;segType:HShell
G0 X122.011 Y112.861 F10800
G1 X124.136 Y114.987 E32.9722 F3600
G0 X123.166 Y114.561 F10800
G1 X119.678 Y111.071 E33.2184 F3600
;segType:Infill
G0 X117.615 Y110.274 F10800
G1 X117.615 Y113.975 E33.4030 F5400
G0 X116.062 Y112.393 F10800
G1 X119.731 Y112.393 E33.5860 F5400
;segType:HShell
G0 X120.476 Y112.957 F10800
G1 X117.062 Y109.541 E33.8270 F3600
G0 X118.949 Y110.342 F10800
G1 X115.459 Y106.850 E34.0733 F3600
G0 X115.034 Y105.880 F10800
G1 X117.159 Y108.007 E34.2233 F3600
G0 X116.465 Y106.769 F10800
G1 X114.731 Y105.033 E34.3457 F3600
;segType:Infill
G0 X111.868 Y104.297 F10800
G1 X114.508 Y104.297 E34.4774 F5400
;segType:HShell
G1 X115.989 Y105.749 E34.5827 F3600
G1 X115.686 Y104.901
G1 X114.316 Y103.531 E34.6794
G0 X115.433 Y104.104 F10800
G1 X114.175 Y102.846 E34.7682 F3600
G1 X114.081 Y102.207
G1 X115.251 Y103.379 E34.8508
G1 X115.107 Y102.690
G1 X113.987 Y101.570 E34.9298
G1 X113.959 Y100.998
G1 X115.012 Y102.052 E35.0041
G1 X114.925 Y101.421
G1 X113.931 Y100.426 E35.0743
G1 X113.916 Y99.868
G1 X114.897 Y100.849 E35.1435
G1 X114.869 Y100.277
G1 X113.942 Y99.349 E35.2089
G1 X113.967 Y98.831
G1 X114.868 Y99.732 E35.2725
G1 X114.894 Y99.214
G1 X114.002 Y98.322 E35.3354
G1 X114.072 Y97.848
G1 X114.919 Y98.696 E35.3952
G1 X114.974 Y98.207
G1 X114.142 Y97.375 E35.4538
G1 X114.213 Y96.901
G1 X115.044 Y97.733 E35.5125
G1 X115.114 Y97.259
G1 X114.318 Y96.463 E35.5687
G1 X114.427 Y96.028
G1 X115.205 Y96.807 E35.6236
G1 X115.314 Y96.372
G1 X114.536 Y95.593 E35.6785
G1 X114.658 Y95.171
G1 X115.423 Y95.937 E35.7325
G1 X115.539 Y95.509
G1 X114.801 Y94.771 E35.7846
G1 X114.944 Y94.370
G1 X115.682 Y95.109 E35.8367
G1 X115.826 Y94.709
G1 X115.087 Y93.970 E35.8888
G1 X115.251 Y93.590
G1 X115.969 Y94.308 E35.9395
G1 X116.135 Y93.930
G1 X115.426 Y93.221 E35.9895
G1 X115.601 Y92.852
G1 X116.309 Y93.561 E36.0396
G1 X116.484 Y93.192
G1 X115.775 Y92.483 E36.0896
G1 X115.973 Y92.137
G1 X116.661 Y92.825 E36.1381
G1 X116.864 Y92.485
G1 X116.176 Y91.797 E36.1867
G1 X116.380 Y91.457
G1 X117.068 Y92.145 E36.2352
G1 X117.272 Y91.805
G1 X116.584 Y91.117 E36.2838
G1 X116.810 Y90.799
G1 X117.484 Y91.474 E36.3314
G1 X117.716 Y91.162
G1 X117.041 Y90.487 E36.3790
G1 X117.273 Y90.175
G1 X117.948 Y90.850 E36.4266
G1 X118.179 Y90.537
G1 X117.505 Y89.862 E36.4742
G1 X117.756 Y89.570
G1 X118.424 Y90.238 E36.5214
G1 X118.682 Y89.953
G1 X118.014 Y89.285 E36.5685
G1 X118.272 Y88.999
G1 X118.941 Y89.668 E36.6157
G1 X119.199 Y89.383
G1 X118.531 Y88.714 E36.6628
G1 X118.806 Y88.445
G1 X119.474 Y89.114 E36.7100
G1 X119.759 Y88.856
G1 X119.091 Y88.187 E36.7572
G1 X119.376 Y87.929
G1 X120.044 Y88.597 E36.8043
G1 X120.330 Y88.339
G1 X119.661 Y87.670 E36.8515
G1 X119.960 Y87.425
G1 X120.635 Y88.100 E36.8991
G1 X120.947 Y87.869
G1 X120.273 Y87.194 E36.9467
G1 X120.585 Y86.962
G1 X121.259 Y87.637 E36.9943
G1 X121.571 Y87.406
G1 X120.897 Y86.731 E37.0419
G1 X121.221 Y86.512
G1 X121.909 Y87.200 E37.0905
G1 X122.249 Y86.996
G1 X121.561 Y86.308 E37.1390
G1 X121.901 Y86.104
G1 X122.589 Y86.792 E37.1876
G1 X122.933 Y86.593
G1 X122.241 Y85.900 E37.2365
G1 X122.594 Y85.710
G1 X123.302 Y86.419 E37.2865
G1 X123.672 Y86.244
G1 X122.963 Y85.535 E37.3365
G1 X123.332 Y85.361
G1 X124.041 Y86.070 E37.3865
G1 X124.426 Y85.912
G1 X123.701 Y85.186 E37.4377
G1 X124.088 Y85.030
G1 X124.826 Y85.768 E37.4897
G1 X125.226 Y85.625
G1 X124.488 Y84.887 E37.5418
G1 X124.889 Y84.743
G1 X125.627 Y85.482 E37.5939
G1 X126.062 Y85.373
G1 X125.289 Y84.600 E37.6485
G1 X125.719 Y84.486
G1 X126.497 Y85.264 E37.7034
G1 X126.931 Y85.155
G1 X126.154 Y84.377 E37.7583
G1 X126.588 Y84.268
G1 X127.393 Y85.073 E37.8150
G1 X127.866 Y85.003
G1 X127.036 Y84.172 E37.8737
G1 X127.509 Y84.102
G1 X128.340 Y84.933 E37.9323
G1 X128.839 Y84.889
G1 X127.982 Y84.032 E37.9927
G1 X128.457 Y83.963
G1 X129.357 Y84.863 E38.0563
G1 X129.875 Y84.838
G1 X128.975 Y83.937 E38.1198
G1 X129.493 Y83.912
G1 X130.431 Y84.851 E38.1861
G1 X131.003 Y84.879
G1 X130.011 Y83.886 E38.2561
G1 X130.581 Y83.913
G1 X131.582 Y84.914 E38.3267
G1 X132.220 Y85.009
G1 X131.153 Y83.941 E38.4020
G1 X131.738 Y83.983
G1 X132.858 Y85.103 E38.4810
;segType:Infill
G0 X132.245 Y84.058 F10800
G1 X139.745 Y84.058 E38.8552 F5400
G0 X137.842 Y83.061 F10800
G1 X137.842 Y85.921 E38.9979 F5400
;segType:HShell
G0 X137.102 Y85.544 F10800
G1 X144.484 Y92.929 E39.5189 F3600
;segType:Infill
G0 X144.085 Y92.154 F10800
G1 X146.948 Y92.154 E39.6617 F5400
;segType:HShell
G0 X143.966 Y94.043 F10800
G1 X145.511 Y95.588 E39.7707 F3600
G0 X144.757 Y96.466 F10800
G1 X145.947 Y97.656 E39.8547 F3600
G1 X146.041 Y98.295
G1 X144.921 Y97.173 E39.9338
G1 X145.015 Y97.812
G1 X146.083 Y98.880 E40.0091
G1 X146.111 Y99.452
G1 X145.110 Y98.451 E40.0797
G1 X145.145 Y99.029
G1 X146.137 Y100.021 E40.1497
G1 X146.111 Y100.540
G1 X145.173 Y99.601 E40.2159
G1 X145.185 Y100.157
G1 X146.086 Y101.058 E40.2795
G1 X146.060 Y101.576
G1 X145.159 Y100.675 E40.3430
G1 X145.134 Y101.193
G1 X145.990 Y102.050 E40.4035
G1 X145.920 Y102.524
G1 X145.089 Y101.692 E40.4621
G1 X145.019 Y102.166
G1 X145.850 Y102.997 E40.5208
G1 X145.753 Y103.444
G1 X144.949 Y102.639 E40.5776
G1 X144.866 Y103.100
G1 X145.644 Y103.879 E40.6325
G1 X145.535 Y104.314
G1 X144.757 Y103.535 E40.6874
G1 X144.648 Y103.970
G1 X145.421 Y104.743 E40.7419
G1 X145.277 Y105.144
G1 X144.539 Y104.405 E40.7940
G1 X144.396 Y104.805
G1 X145.134 Y105.544 E40.8461
; ------------------------------------
; Layer #4
; ------------------------------------
G21 ; mm
G90 ; abs
G92 E0 ; reset extr
M106 S255
;segType:HShell
G0 F4800 E-1.0000
G0 F300 Z1.500
G0 X138.676 Y113.072 F10800
G0 F4800 E0.0000
G1 X143.099 Y108.646 E0.3122 F3600
;segType:Infill
G0 X143.280 Y108.345 F10800
G1 X146.726 Y108.345 E0.4841 F5400
;segType:Loop
G0 X139.699 Y111.197 F10800
G1 X139.420 Y111.450 E0.5029 F3600
G1 X138.252 Y112.315 E0.5754
G1 X137.005 Y113.063 E0.6479
G1 X135.692 Y113.684 E0.7204
G1 X134.323 Y114.174 E0.7930
G1 X132.913 Y114.527 E0.8655
G1 X131.475 Y114.740 E0.9380
G1 X130.024 Y114.812 E1.0105
G1 X128.572 Y114.740 E1.0830
G1 X127.135 Y114.527 E1.1555
G1 X125.724 Y114.174 E1.2280
G1 X124.356 Y113.684 E1.3006
G1 X123.042 Y113.063 E1.3731
G1 X121.795 Y112.315 E1.4456
G1 X120.628 Y111.450 E1.5181
G1 X119.551 Y110.474 E1.5906
G1 X118.575 Y109.396 E1.6631
G1 X117.709 Y108.229 E1.7356
G1 X116.961 Y106.983 E1.8082
G1 X116.340 Y105.668 E1.8807
G1 X115.850 Y104.300 E1.9532
G1 X115.497 Y102.890 E2.0257
G1 X115.284 Y101.452 E2.0982
G1 X115.212 Y100.000 E2.1708
G1 X115.284 Y98.548 E2.2433
G1 X115.497 Y97.110 E2.3158
G1 X115.850 Y95.700 E2.3883
G1 X116.340 Y94.332 E2.4609
G1 X116.961 Y93.017 E2.5334
G1 X117.709 Y91.771 E2.6059
G1 X118.575 Y90.604 E2.6784
G1 X119.551 Y89.526 E2.7509
G1 X120.628 Y88.550 E2.8234
G1 X121.795 Y87.685 E2.8959
G1 X123.042 Y86.937 E2.9685
G1 X124.356 Y86.316 E3.0410
G1 X125.724 Y85.826 E3.1135
G1 X127.135 Y85.473 E3.1860
G1 X128.572 Y85.260 E3.2585
G1 X130.024 Y85.188 E3.3310
G1 X131.475 Y85.260 E3.4036
G1 X132.913 Y85.473 E3.4761
G1 X134.323 Y85.826 E3.5486
G1 X135.692 Y86.316 E3.6211
G1 X137.005 Y86.937 E3.6936
G1 X138.252 Y87.685 E3.7661
G1 X139.420 Y88.550 E3.8386
G1 X140.497 Y89.526 E3.9112
G1 X141.473 Y90.604 E3.9837
G1 X142.339 Y91.771 E4.0562
G1 X143.086 Y93.017 E4.1287
G1 X143.707 Y94.332 E4.2012
G1 X144.197 Y95.700 E4.2738
G1 X144.551 Y97.110 E4.3463
G1 X144.764 Y98.548 E4.4188
G1 X144.835 Y100.000 E4.4913
G1 X144.764 Y101.452 E4.5638
G1 X144.551 Y102.890 E4.6363
G1 X144.197 Y104.300 E4.7089
G1 X143.707 Y105.668 E4.7814
G1 X143.086 Y106.982 E4.8539
G1 X142.339 Y108.229 E4.9264
G1 X141.473 Y109.396 E4.9989
G1 X140.497 Y110.474 E5.0715
G1 X139.841 Y111.068 E5.1156
;segType:Perimeter
G0 X146.809 Y108.455 F10800
G1 X147.034 Y109.109 E5.1501 F2160
G1 X145.637 Y111.344 E5.2816
G1 X143.907 Y113.407 E5.4159
G1 X141.906 Y115.208 E5.5503
G1 X139.673 Y116.714 E5.6846
G1 X137.254 Y117.894 E5.8189
G1 X134.693 Y118.726 E5.9533
G1 X132.041 Y119.194 E6.0876
G1 X129.350 Y119.288 E6.2219
G1 X126.672 Y119.006 E6.3563
G1 X124.060 Y118.355 E6.4906
G1 X121.563 Y117.346 E6.6249
G1 X119.231 Y116.000 E6.7593
G1 X117.110 Y114.342 E6.8936
G1 X115.239 Y112.405 E7.0279
G1 X113.657 Y110.227 E7.1622
G1 X112.393 Y107.850 E7.2966
G1 X111.472 Y105.320 E7.4309
G1 X110.912 Y102.686 E7.5652
G1 X110.724 Y100.000 E7.6996
G1 X110.912 Y97.314 E7.8339
G1 X111.472 Y94.680 E7.9682
G1 X112.393 Y92.150 E8.1026
G1 X113.657 Y89.773 E8.2369
G1 X115.239 Y87.595 E8.3712
G1 X117.110 Y85.658 E8.5055
G1 X119.231 Y84.000 E8.6399
G1 X121.563 Y82.654 E8.7742
G1 X124.060 Y81.645 E8.9085
G1 X126.672 Y80.994 E9.0429
G1 X129.350 Y80.712 E9.1772
G1 X132.041 Y80.806 E9.3115
G1 X134.693 Y81.274 E9.4459
G1 X137.254 Y82.106 E9.5802
G1 X139.673 Y83.286 E9.7145
G1 X141.906 Y84.792 E9.8488
G1 X143.907 Y86.593 E9.9832
G1 X145.637 Y88.656 E10.1175
G1 X147.064 Y90.940 E10.2519
G1 X148.159 Y93.399 E10.3862
G1 X148.902 Y95.987 E10.5205
G1 X149.276 Y98.654 E10.6548
G1 X149.276 Y101.346 E10.7892
G1 X148.902 Y104.013 E10.9235
G1 X148.159 Y106.601 E11.0578
G1 X147.088 Y109.008 E11.1893
G1 X146.420 Y109.187
;segType:HShell
G0 X143.888 Y107.313 F10800
G1 X141.133 Y110.069 E11.3837 F3600
;segType:Loop
G0 X146.165 Y109.745 F10800
G1 X145.313 Y111.108 E11.4639 F3600
G1 X143.618 Y113.128 E11.5954
G1 X141.659 Y114.892 E11.7270
G1 X139.473 Y116.366 E11.8585
G1 X137.103 Y117.522 E11.9900
G1 X134.596 Y118.337 E12.1216
G1 X131.999 Y118.795 E12.2531
G1 X129.364 Y118.887 E12.3847
G1 X126.742 Y118.611 E12.5162
G1 X124.184 Y117.973 E12.6478
G1 X121.739 Y116.985 E12.7793
G1 X119.456 Y115.667 E12.9108
G1 X117.378 Y114.044 E13.0424
G1 X115.547 Y112.147 E13.1739
G1 X113.997 Y110.014 E13.3055
G1 X112.759 Y107.687 E13.4370
G1 X111.857 Y105.209 E13.5685
G1 X111.309 Y102.630 E13.7001
G1 X111.125 Y100.000 E13.8316
G1 X111.309 Y97.370 E13.9631
G1 X111.857 Y94.791 E14.0947
G1 X112.759 Y92.313 E14.2262
G1 X113.997 Y89.986 E14.3577
G1 X115.547 Y87.853 E14.4893
G1 X117.378 Y85.956 E14.6208
G1 X119.456 Y84.333 E14.7524
G1 X121.739 Y83.015 E14.8839
G1 X124.184 Y82.027 E15.0154
G1 X126.742 Y81.389 E15.1470
G1 X129.364 Y81.113 E15.2785
G1 X131.999 Y81.205 E15.4101
G1 X134.596 Y81.663 E15.5416
G1 X137.103 Y82.478 E15.6732
G1 X139.473 Y83.634 E15.8047
G1 X141.659 Y85.108 E15.9362
G1 X143.618 Y86.872 E16.0678
G1 X145.313 Y88.892 E16.1993
G1 X146.710 Y91.128 E16.3309
G1 X147.783 Y93.536 E16.4624
G1 X148.509 Y96.071 E16.5939
G1 X148.876 Y98.682 E16.7255
G1 X148.876 Y101.318 E16.8570
G1 X148.509 Y103.929 E16.9885
G1 X147.783 Y106.463 E17.1201
G1 X146.710 Y108.872 E17.2516
G1 X146.267 Y109.582 E17.2934
G0 X143.473 Y110.407 F10800
G0 X140.862 Y110.212
;segType:Perimeter
G1 X140.171 Y110.229 E17.3279 F2160
G1 X139.166 Y111.140 E17.3955
G1 X138.030 Y111.982 E17.4661
G1 X136.817 Y112.710 E17.5367
G1 X135.538 Y113.314 E17.6072
G1 X134.207 Y113.790 E17.6778
G1 X132.835 Y114.134 E17.7483
G1 X131.436 Y114.341 E17.8189
G1 X130.024 Y114.411 E17.8894
G1 X128.611 Y114.341 E17.9600
G1 X127.213 Y114.134 E18.0305
G1 X125.841 Y113.790 E18.1011
G1 X124.509 Y113.314 E18.1716
G1 X123.231 Y112.710 E18.2422
G1 X122.017 Y111.982 E18.3128
G1 X120.882 Y111.140 E18.3833
G1 X119.834 Y110.190 E18.4539
G1 X118.884 Y109.142 E18.5244
G1 X118.042 Y108.006 E18.5950
G1 X117.315 Y106.793 E18.6655
G1 X116.710 Y105.515 E18.7361
G1 X116.233 Y104.183 E18.8066
G1 X115.890 Y102.811 E18.8772
G1 X115.682 Y101.413 E18.9478
G1 X115.613 Y100.000 E19.0183
G1 X115.682 Y98.587 E19.0889
G1 X115.890 Y97.189 E19.1594
G1 X116.233 Y95.817 E19.2300
G1 X116.710 Y94.485 E19.3005
G1 X117.315 Y93.207 E19.3711
G1 X118.042 Y91.994 E19.4417
G1 X118.884 Y90.858 E19.5122
G1 X119.834 Y89.810 E19.5828
G1 X120.882 Y88.860 E19.6533
G1 X122.017 Y88.018 E19.7239
G1 X123.231 Y87.290 E19.7944
G1 X124.509 Y86.686 E19.8650
G1 X125.841 Y86.210 E19.9355
G1 X127.213 Y85.866 E20.0061
G1 X128.611 Y85.659 E20.0766
G1 X130.024 Y85.589 E20.1472
G1 X131.436 Y85.659 E20.2178
G1 X132.835 Y85.866 E20.2883
G1 X134.207 Y86.210 E20.3589
G1 X135.538 Y86.686 E20.4294
G1 X136.817 Y87.290 E20.5000
G1 X138.030 Y88.018 E20.5705
G1 X139.166 Y88.860 E20.6411
G1 X140.214 Y89.810 E20.7116
G1 X141.163 Y90.858 E20.7822
G1 X142.006 Y91.994 E20.8528
G1 X142.733 Y93.207 E20.9233
G1 X143.338 Y94.485 E20.9939
G1 X143.814 Y95.817 E21.0644
G1 X144.158 Y97.189 E21.1350
G1 X144.365 Y98.588 E21.2055
G1 X144.435 Y100.000 E21.2761
G1 X144.365 Y101.412 E21.3466
G1 X144.158 Y102.811 E21.4172
G1 X143.814 Y104.183 E21.4878
G1 X143.338 Y105.515 E21.5583
G1 X142.733 Y106.793 E21.6289
G1 X142.006 Y108.006 E21.6994
G1 X141.163 Y109.142 E21.7700
G1 X140.252 Y110.148 E21.8377
G1 X140.235 Y110.839
;segType:HShell
G0 X140.099 Y111.104 F10800
G1 X137.343 Y113.862 E22.0322 F3600
G0 X134.823 Y114.207 F10800
G1 X133.844 Y115.187 E22.1013 F3600
G1 X134.569 Y115.006
G1 X135.670 Y113.905 E22.1790
G0 X136.678 Y113.439 F10800
G1 X135.415 Y114.703 E22.2681 F3600
G0 X136.313 Y114.349 F10800
G1 X137.901 Y112.759 E22.3803 F3600
;segType:Infill
G0 X139.603 Y112.393 F10800
G1 X143.974 Y112.393 E22.5983 F5400
G0 X141.887 Y114.417 F10800
G1 X141.887 Y110.230 E22.8073 F5400
;segType:HShell
G0 X142.787 Y107.871 F10800
G1 X144.377 Y106.280 E22.9194 F3600
G1 X143.931 Y105.639
G1 X145.031 Y104.538 E22.9971
;segType:Infill
G0 X145.091 Y104.297 F10800
G1 X148.196 Y104.297 E23.1520 F5400
;segType:HShell
G0 X145.213 Y103.812 F10800
G1 X144.234 Y104.791 E23.2211 F3600
G1 X144.730 Y105.383
G1 X143.465 Y106.648 E23.3103
;segType:Infill
G0 X145.932 Y109.739 F10800
G1 X145.932 Y90.261 E24.2821 F5400
G0 X146.948 Y92.154 F10800
G1 X143.578 Y92.154 E24.4502 F5400
G0 X145.216 Y96.202 F10800
G1 X148.326 Y96.202 E24.6053 F5400
G0 X148.676 Y100.249 F10800
G1 X145.690 Y100.249 E24.7543 F5400
;segType:HShell
G0 X144.478 Y104.004 F10800
G1 X145.394 Y103.087 E24.8190 F3600
G1 X145.492 Y102.445
G1 X144.660 Y103.278 E24.8778
G1 X144.796 Y102.597
G1 X145.587 Y101.806 E24.9336
G1 X145.643 Y101.206
G1 X144.891 Y101.959 E24.9867
G1 X144.970 Y101.336
G1 X145.671 Y100.634 E25.0362
G1 X145.699 Y100.062
G1 X144.998 Y100.764 E25.0857
G1 X145.026 Y100.192
G1 X145.680 Y99.538 E25.1319
G1 X145.654 Y99.020
G1 X145.018 Y99.656 E25.1768
G1 X144.993 Y99.138
G1 X145.629 Y98.501 E25.2217
G1 X145.562 Y98.024
G1 X144.967 Y98.619 E25.2636
G1 X144.905 Y98.138
G1 X145.492 Y97.551 E25.3050
G1 X145.421 Y97.077
G1 X144.835 Y97.664 E25.3464
G1 X144.765 Y97.191
G1 X145.324 Y96.631 E25.3859
G1 X145.215 Y96.197
G1 X144.666 Y96.746 E25.4247
G1 X144.557 Y96.311
G1 X145.106 Y95.762 E25.4634
G1 X144.987 Y95.336
G1 X144.448 Y95.876 E25.5015
G1 X144.323 Y95.457
G1 X144.844 Y94.936 E25.5383
G1 X144.701 Y94.536
G1 X144.180 Y95.057 E25.5750
G1 X144.036 Y94.657
G1 X144.557 Y94.135 E25.6118
G1 X144.393 Y93.756
G1 X143.893 Y94.256 E25.6471
G1 X143.719 Y93.887
G1 X144.219 Y93.386 E25.6824
G1 X144.044 Y93.017
G1 X143.544 Y93.518 E25.7177
G1 X143.369 Y93.149
G1 X143.870 Y92.648 E25.7531
G1 X143.669 Y92.305
G1 X143.183 Y92.791 E25.7873
G1 X142.980 Y92.451
G1 X143.465 Y91.965 E25.8216
G1 X143.262 Y91.625
G1 X142.776 Y92.111 E25.8559
G1 X142.572 Y91.771
G1 X143.057 Y91.285 E25.8901
G1 X142.826 Y90.973
G1 X142.350 Y91.450 E25.9237
G1 X142.118 Y91.138
G1 X142.594 Y90.661 E25.9573
G1 X142.363 Y90.349
G1 X141.887 Y90.826 E25.9909
G1 X141.655 Y90.513
G1 X142.130 Y90.038 E26.0244
G1 X141.871 Y89.753
G1 X141.400 Y90.225 E26.0577
G1 X141.141 Y89.940
G1 X141.613 Y89.468 E26.0910
G1 X141.355 Y89.183
G1 X140.883 Y89.655 E26.1243
G1 X140.623 Y89.371
G1 X141.095 Y88.899 E26.1576
G1 X140.809 Y88.640
G1 X140.338 Y89.112 E26.1909
G1 X140.053 Y88.854
G1 X140.524 Y88.382 E26.2241
G1 X140.239 Y88.124
G1 X139.767 Y88.596 E26.2574
G1 X139.476 Y88.343
G1 X139.952 Y87.867 E26.2910
G1 X139.640 Y87.635
G1 X139.164 Y88.112 E26.3247
G1 X138.852 Y87.880
G1 X139.328 Y87.404 E26.3583
G1 X139.016 Y87.172
G1 X138.540 Y87.649 E26.3919
G1 X138.216 Y87.429
G1 X138.701 Y86.943 E26.4261
G1 X138.361 Y86.740
G1 X137.876 Y87.225 E26.4604
G1 X137.536 Y87.022
G1 X138.021 Y86.536 E26.4947
G1 X137.682 Y86.332
G1 X137.196 Y86.818 E26.5289
G1 X136.835 Y86.635
G1 X137.335 Y86.135 E26.5642
G1 X136.966 Y85.960
G1 X136.466 Y86.461 E26.5996
G1 X136.097 Y86.286
G1 X136.597 Y85.786 E26.6349
G1 X136.228 Y85.611
G1 X135.724 Y86.115 E26.6704
G1 X135.324 Y85.972
G1 X135.845 Y85.451 E26.7072
G1 X135.445 Y85.307
G1 X134.924 Y85.828 E26.7439
G1 X134.524 Y85.685
G1 X135.044 Y85.164 E26.7807
G1 X134.644 Y85.021
G1 X134.101 Y85.564 E26.8190
G1 X133.666 Y85.455
G1 X134.215 Y84.906 E26.8578
G1 X133.781 Y84.797
G1 X133.232 Y85.346 E26.8965
G1 X132.783 Y85.251
G1 X133.346 Y84.688 E26.9362
G1 X132.896 Y84.594
G1 X132.310 Y85.181 E26.9776
G1 X131.836 Y85.111
G1 X132.423 Y84.524 E27.0190
G1 X131.949 Y84.454
G1 X131.351 Y85.053 E27.0613
G1 X130.832 Y85.028
G1 X131.468 Y84.392 E27.1061
G1 X130.950 Y84.366
G1 X130.314 Y85.002 E27.1510
G1 X129.773 Y85.000
G1 X130.432 Y84.341 E27.1975
G1 X129.903 Y84.327
G1 X129.201 Y85.028 E27.2470
G1 X128.630 Y85.057
G1 X129.331 Y84.355 E27.2965
G1 X128.759 Y84.383
G1 X128.001 Y85.142 E27.3501
G1 X127.363 Y85.237
G1 X128.153 Y84.446 E27.4058
G1 X127.515 Y84.540
G1 X126.674 Y85.382 E27.4652
G1 X125.949 Y85.563
G1 X126.865 Y84.647 E27.5298
;segType:Infill
G0 X125.705 Y81.854 F10800
G1 X125.705 Y84.938 E27.6837 F5400
;segType:HShell
G0 X124.559 Y85.323 F10800
G1 X123.279 Y86.604 E27.7740 F3600
G0 X122.028 Y87.312 F10800
G1 X123.645 Y85.694 E27.8881 F3600
G0 X125.405 Y85.020 F10800
G1 X124.304 Y86.122 E27.9658 F3600
G1 X125.150 Y85.819
G1 X126.140 Y84.829 E28.0357
;segType:Infill
G0 X129.751 Y84.334 F10800
G1 X129.751 Y81.327 E28.1857 F5400
G0 X133.796 Y81.725 F10800
G1 X133.796 Y84.801 E28.3391 F5400
G0 X137.842 Y83.061 F10800
G1 X137.842 Y86.428 E28.5071 F5400
G0 X140.220 Y88.106 F10800
G1 X144.392 Y88.106 E28.7153 F5400
G0 X141.887 Y89.770 F10800
G1 X141.887 Y85.583 E28.9242 F5400
G0 X139.745 Y84.058 F10800
G1 X120.331 Y84.058 E29.8928 F5400
G0 X121.660 Y83.291 F10800
G1 X121.660 Y86.755 E30.0656 F5400
;segType:HShell
G0 X122.609 Y86.187 F10800
G1 X119.447 Y89.351 E30.2888 F3600
;segType:Infill
G0 X117.615 Y86.025 F10800
G1 X117.615 Y90.443 E30.5092 F5400
;segType:HShell
G0 X117.049 Y91.206 F10800
G1 X121.221 Y87.031 E30.8036 F3600
;segType:Infill
G0 X119.828 Y88.106 F10800
G1 X115.610 Y88.106 E31.0141 F5400
;segType:HShell
G0 X119.375 Y89.422 F10800
G1 X116.205 Y92.594 E31.2378 F3600
G1 X116.625 Y93.262
G1 X115.344 Y94.543 E31.3281
G1 X115.041 Y95.391
G1 X116.143 Y94.287 E31.4060
G1 X115.713 Y93.630
G1 X117.332 Y92.010 E31.5202
;segType:Infill
G0 X116.469 Y92.154 F10800
G1 X113.070 Y92.154 E31.6898 F5400
G0 X113.569 Y91.216 F10800
G1 X113.569 Y108.784 E32.5663 F5400
G1 X113.335 Y108.345 E32.5911
G1 X116.768 Y108.345 E32.7623
G0 X114.956 Y104.297 F10800
G1 X111.868 Y104.297 E32.9164 F5400
G0 X114.357 Y100.249 F10800
G1 X111.343 Y100.249 E33.0668 F5400
G0 X111.762 Y96.202 F10800
G1 X114.831 Y96.202 E33.2199 F5400
;segType:HShell
G0 X114.851 Y96.124 F10800
G1 X115.840 Y95.135 E33.2898 F3600
G1 X115.585 Y95.933
G1 X114.669 Y96.850 E33.3544
G1 X114.564 Y97.499
G1 X115.404 Y96.659 E33.4137
G1 X115.260 Y97.347
G1 X114.469 Y98.138 E33.4695
G1 X114.407 Y98.744
G1 X115.165 Y97.985 E33.5230
G1 X115.081 Y98.614
G1 X114.379 Y99.316 E33.5726
G1 X114.351 Y99.888
G1 X115.052 Y99.186 E33.6221
G1 X115.024 Y99.758
G1 X114.366 Y100.417 E33.6686
G1 X114.391 Y100.935
G1 X115.027 Y100.299 E33.7134
G1 X115.052 Y100.817
G1 X114.417 Y101.453 E33.7583
G1 X114.480 Y101.934
G1 X115.078 Y101.335 E33.8005
G1 X115.136 Y101.821
G1 X114.550 Y102.408 E33.8419
G1 X114.620 Y102.881
G1 X115.207 Y102.294 E33.8833
G1 X115.277 Y102.768
G1 X114.714 Y103.331 E33.9230
G1 X114.823 Y103.765
G1 X115.372 Y103.216 E33.9618
G1 X115.481 Y103.651
G1 X114.932 Y104.200 E34.0005
G1 X115.048 Y104.629
G1 X115.590 Y104.086 E34.0388
G1 X115.712 Y104.508
G1 X115.191 Y105.029 E34.0756
G1 X115.334 Y105.429
G1 X115.855 Y104.908 E34.1124
G1 X115.999 Y105.308
G1 X115.478 Y105.830 E34.1491
G1 X115.639 Y106.212
G1 X116.142 Y105.709 E34.1847
G1 X116.314 Y106.081
G1 X115.813 Y106.581 E34.2200
G1 X115.988 Y106.951
G1 X116.488 Y106.450 E34.2553
G1 X116.663 Y106.819
G1 X116.163 Y107.320 E34.2906
G1 X116.361 Y107.665
G1 X116.846 Y107.179 E34.3249
G1 X117.050 Y107.519
G1 X116.564 Y108.005 E34.3591
G1 X116.768 Y108.345
G1 X117.254 Y107.859 E34.3934
G1 X117.458 Y108.199
G1 X116.972 Y108.685 E34.4277
G1 X117.201 Y108.999
G1 X117.678 Y108.523 E34.4613
G1 X117.909 Y108.835
G1 X117.433 Y109.312 E34.4949
G1 X117.664 Y109.624
G1 X118.141 Y109.147 E34.5285
G1 X118.372 Y109.459
G1 X117.896 Y109.936 E34.5622
G1 X118.153 Y110.222
G1 X118.625 Y109.750 E34.5954
G1 X118.884 Y110.035
G1 X118.412 Y110.507 E34.6287
G1 X118.670 Y110.792
G1 X119.142 Y110.321 E34.6620
G1 X119.400 Y110.606
G1 X118.929 Y111.078 E34.6953
G1 X119.213 Y111.337
G1 X119.685 Y110.865 E34.7286
G1 X119.970 Y111.123
G1 X119.498 Y111.595 E34.7619
G1 X119.784 Y111.854
G1 X120.255 Y111.382 E34.7951
G1 X120.544 Y111.637
G1 X120.069 Y112.112 E34.8287
G1 X120.380 Y112.345
G1 X120.856 Y111.868 E34.8623
G1 X121.168 Y112.100
G1 X120.692 Y112.576 E34.8959
G1 X121.004 Y112.808
G1 X121.481 Y112.331 E34.9295
G1 X121.802 Y112.553
G1 X121.317 Y113.039 E34.9638
G1 X121.657 Y113.243
G1 X122.142 Y112.757 E34.9981
G1 X122.482 Y112.961
G1 X121.997 Y113.446 E35.0323
G1 X122.336 Y113.650
G1 X122.822 Y113.164 E35.0666
G1 X123.180 Y113.350
G1 X122.680 Y113.850 E35.1019
G1 X123.049 Y114.025
G1 X123.549 Y113.524 E35.1372
G1 X123.918 Y113.699
G1 X123.418 Y114.199 E35.1725
G1 X123.787 Y114.374
G1 X124.288 Y113.872 E35.2078
G1 X124.688 Y114.016
G1 X124.168 Y114.537 E35.2446
G1 X124.568 Y114.680
G1 X125.089 Y114.159 E35.2814
G1 X125.489 Y114.302
G1 X124.968 Y114.823 E35.3181
G1 X125.368 Y114.967
G1 X125.909 Y114.426 E35.3562
G1 X126.343 Y114.535
G1 X125.794 Y115.085 E35.3950
G1 X126.229 Y115.194
G1 X126.778 Y114.644 E35.4338
G1 X127.223 Y114.743
G1 X126.663 Y115.302 E35.4733
G1 X127.110 Y115.400
G1 X127.696 Y114.813 E35.5147
G1 X128.170 Y114.883
G1 X127.583 Y115.470 E35.5560
G1 X128.057 Y115.540
G1 X128.652 Y114.945 E35.5980
G1 X129.170 Y114.970
G1 X128.534 Y115.606 E35.6429
G1 X129.052 Y115.631
G1 X129.688 Y114.995 E35.6878
G1 X130.225 Y115.002
G1 X129.570 Y115.657 E35.7339
G1 X130.095 Y115.676
G1 X130.796 Y114.974 E35.7834
G1 X131.368 Y114.946
G1 X130.667 Y115.648 E35.8329
G1 X131.238 Y115.620
G1 X131.991 Y114.866 E35.8861
G1 X132.629 Y114.771
G1 X131.839 Y115.562 E35.9419
G1 X132.477 Y115.468
G1 X133.310 Y114.634 E36.0007
G1 X134.035 Y114.452
G1 X133.119 Y115.369 E36.0653
;segType:Infill
G0 X129.751 Y115.666 F10800
G1 X129.751 Y118.673 E36.2154 F5400
G0 X133.796 Y118.275 F10800
G1 X133.796 Y115.199 E36.3688 F5400
G0 X125.705 Y118.146 F10800
G1 X125.705 Y115.062 E36.5226 F5400
G0 X117.615 Y113.975 F10800
G1 X117.615 Y109.557 E36.7431 F5400
G0 X116.062 Y112.393 F10800
G1 X120.445 Y112.393 E36.9618 F5400
G0 X121.660 Y113.245 F10800
G1 X121.660 Y116.709 E37.1346 F5400
G1 X121.195 Y116.440 E37.1614
G1 X138.865 Y116.440 E38.0429
G0 X137.842 Y116.939 F10800
G1 X137.842 Y113.572 E38.2109 F5400
; ------------------------------------
; Layer #5
; ------------------------------------
G21 ; mm
G90 ; abs
G92 E0 ; reset extr
M106 S255
;segType:HShell
G0 F4800 E-1.0000
G0 F300 Z1.800
G0 X139.876 Y111.159 F10800
G0 F4800 E0.0000
G1 X140.214 Y111.498 E0.0239 F3600
G1 X140.499 Y111.239
G1 X140.161 Y110.900 E0.0478
G1 X140.446 Y110.642
G1 X140.785 Y110.981 E0.0717
G1 X141.054 Y110.706
G1 X140.715 Y110.368 E0.0956
G1 X140.974 Y110.082
G1 X141.312 Y110.421 E0.1195
G1 X141.571 Y110.136
G1 X141.232 Y109.797 E0.1434
G1 X141.490 Y109.512
G1 X141.829 Y109.851 E0.1673
G1 X142.069 Y109.547
G1 X141.727 Y109.205 E0.1914
G1 X141.959 Y108.893
G1 X142.301 Y109.235 E0.2155
G1 X142.532 Y108.923
G1 X142.191 Y108.581 E0.2396
G1 X142.421 Y108.268
G1 X142.764 Y108.611 E0.2638
G1 X142.974 Y108.277
G1 X142.625 Y107.928 E0.2885
G1 X142.829 Y107.588
G1 X143.177 Y107.937 E0.3131
;segType:Infill
G0 X142.933 Y108.345 F10800
G1 X146.726 Y108.345 E0.5023 F5400
;segType:Perimeter
G0 X146.809 Y108.455 F10800
G1 X147.034 Y109.109 E0.5368 F2160
G1 X145.637 Y111.344 E0.6683
G1 X143.907 Y113.407 E0.8026
G1 X141.906 Y115.208 E0.9370
G1 X139.673 Y116.714 E1.0713
G1 X137.254 Y117.894 E1.2056
G1 X134.693 Y118.726 E1.3400
G1 X132.041 Y119.194 E1.4743
G1 X129.350 Y119.288 E1.6086
G1 X126.672 Y119.006 E1.7430
G1 X124.060 Y118.355 E1.8773
G1 X121.563 Y117.346 E2.0116
G1 X119.231 Y116.000 E2.1460
G1 X117.110 Y114.342 E2.2803
G1 X115.239 Y112.405 E2.4146
G1 X113.657 Y110.227 E2.5489
G1 X112.393 Y107.850 E2.6833
G1 X111.472 Y105.320 E2.8176
G1 X110.912 Y102.686 E2.9519
G1 X110.724 Y100.000 E3.0863
G1 X110.912 Y97.314 E3.2206
G1 X111.472 Y94.680 E3.3549
G1 X112.393 Y92.150 E3.4893
G1 X113.657 Y89.773 E3.6236
G1 X115.239 Y87.595 E3.7579
G1 X117.110 Y85.658 E3.8922
G1 X119.231 Y84.000 E4.0266
G1 X121.563 Y82.654 E4.1609
G1 X124.060 Y81.645 E4.2952
G1 X126.672 Y80.994 E4.4296
G1 X129.350 Y80.712 E4.5639
G1 X132.041 Y80.806 E4.6982
G1 X134.693 Y81.274 E4.8326
G1 X137.254 Y82.106 E4.9669
G1 X139.673 Y83.286 E5.1012
G1 X141.906 Y84.792 E5.2355
G1 X143.907 Y86.593 E5.3699
G1 X145.637 Y88.656 E5.5042
G1 X147.064 Y90.940 E5.6386
G1 X148.159 Y93.399 E5.7729
G1 X148.902 Y95.987 E5.9072
G1 X149.276 Y98.654 E6.0415
G1 X149.276 Y101.346 E6.1759
G1 X148.902 Y104.013 E6.3102
G1 X148.159 Y106.601 E6.4445
G1 X147.088 Y109.008 E6.5760
G1 X146.420 Y109.187
;segType:Loop
G0 X146.165 Y109.745 F10800
G1 X145.313 Y111.108 E6.6562 F3600
G1 X143.618 Y113.128 E6.7877
G1 X141.659 Y114.892 E6.9192
G1 X139.473 Y116.366 E7.0508
G1 X137.103 Y117.522 E7.1823
G1 X134.596 Y118.337 E7.3139
G1 X131.999 Y118.795 E7.4454
G1 X129.364 Y118.887 E7.5769
G1 X126.742 Y118.611 E7.7085
G1 X124.184 Y117.973 E7.8400
G1 X121.739 Y116.985 E7.9716
G1 X119.456 Y115.667 E8.1031
G1 X117.378 Y114.044 E8.2346
G1 X115.547 Y112.147 E8.3662
G1 X113.997 Y110.014 E8.4977
G1 X112.759 Y107.687 E8.6293
G1 X111.857 Y105.209 E8.7608
G1 X111.309 Y102.630 E8.8923
G1 X111.125 Y100.000 E9.0239
G1 X111.309 Y97.370 E9.1554
G1 X111.857 Y94.791 E9.2869
G1 X112.759 Y92.313 E9.4185
G1 X113.997 Y89.986 E9.5500
G1 X115.547 Y87.853 E9.6816
G1 X117.378 Y85.956 E9.8131
G1 X119.456 Y84.333 E9.9446
G1 X121.739 Y83.015 E10.0762
G1 X124.184 Y82.027 E10.2077
G1 X126.742 Y81.389 E10.3392
G1 X129.364 Y81.113 E10.4708
G1 X131.999 Y81.205 E10.6023
G1 X134.596 Y81.663 E10.7339
G1 X137.103 Y82.478 E10.8654
G1 X139.473 Y83.634 E10.9970
G1 X141.659 Y85.108 E11.1285
G1 X143.618 Y86.872 E11.2600
G1 X145.313 Y88.892 E11.3916
G1 X146.710 Y91.128 E11.5231
G1 X147.783 Y93.536 E11.6547
G1 X148.509 Y96.071 E11.7862
G1 X148.876 Y98.682 E11.9177
G1 X148.876 Y101.318 E12.0493
G1 X148.509 Y103.929 E12.1808
G1 X147.783 Y106.463 E12.3123
G1 X146.710 Y108.872 E12.4439
G1 X146.267 Y109.582 E12.4856
G0 X143.929 Y110.774 F10800
G0 X139.621 Y111.119
G1 X139.350 Y111.365 E12.5039 F3600
G1 X138.192 Y112.224 E12.5758
G1 X136.954 Y112.966 E12.6478
G1 X135.650 Y113.583 E12.7198
G1 X134.291 Y114.069 E12.7918
G1 X132.892 Y114.420 E12.8638
G1 X131.465 Y114.632 E12.9357
G1 X130.024 Y114.702 E13.0077
G1 X128.583 Y114.632 E13.0797
G1 X127.156 Y114.420 E13.1517
G1 X125.756 Y114.069 E13.2237
G1 X124.398 Y113.583 E13.2956
G1 X123.094 Y112.966 E13.3676
G1 X121.856 Y112.224 E13.4396
G1 X120.697 Y111.365 E13.5116
G1 X119.628 Y110.396 E13.5836
G1 X118.659 Y109.327 E13.6555
G1 X117.800 Y108.168 E13.7275
G1 X117.058 Y106.931 E13.7995
G1 X116.441 Y105.627 E13.8715
G1 X115.955 Y104.268 E13.9435
G1 X115.604 Y102.868 E14.0154
G1 X115.393 Y101.441 E14.0874
G1 X115.322 Y100.000 E14.1594
G1 X115.393 Y98.559 E14.2314
G1 X115.604 Y97.132 E14.3034
G1 X115.955 Y95.732 E14.3754
G1 X116.441 Y94.373 E14.4474
G1 X117.058 Y93.069 E14.5193
G1 X117.800 Y91.832 E14.5913
G1 X118.659 Y90.673 E14.6633
G1 X119.628 Y89.604 E14.7353
G1 X120.697 Y88.635 E14.8073
G1 X121.856 Y87.776 E14.8792
G1 X123.094 Y87.034 E14.9512
G1 X124.398 Y86.417 E15.0232
G1 X125.756 Y85.931 E15.0952
G1 X127.156 Y85.580 E15.1672
G1 X128.583 Y85.368 E15.2391
G1 X130.024 Y85.298 E15.3111
G1 X131.465 Y85.368 E15.3831
G1 X132.892 Y85.580 E15.4551
G1 X134.291 Y85.931 E15.5271
G1 X135.650 Y86.417 E15.5990
G1 X136.954 Y87.034 E15.6710
G1 X138.192 Y87.776 E15.7430
G1 X139.350 Y88.635 E15.8150
G1 X140.419 Y89.604 E15.8869
G1 X141.388 Y90.673 E15.9589
G1 X142.248 Y91.832 E16.0309
G1 X142.989 Y93.069 E16.1029
G1 X143.607 Y94.373 E16.1749
